(G-CODE GENERATED BY FLATCAM v8.994 - www.flatcam.org - Version Date: 2020/11/7)

(Name: wemos_test_board_0-B_Cu.gbr_iso_combined_cnc)
(Type: G-code from Geometry)
(Units: MM)

(Created on Sunday, 05 November 2023 at 16:38)

(This preprocessor is the default preprocessor used by FlatCAM.)
(It is made to work with MACH3 compatible motion controllers.)

(TOOL DIAMETER: 0.2 mm)
(Feedrate_XY: 50.0 mm/min)
(Feedrate_Z: 50.0 mm/min)
(Feedrate rapids 1500.0 mm/min)

(Z_Cut: -0.1866 mm)
(Z_Move: 5.0 mm)
(Z Start: None mm)
(Z End: 15.0 mm)
(X,Y End: None mm)
(Steps per circle: 64)
(Preprocessor Geometry: default)

(X range:    8.6000 ...   52.4000  mm)
(Y range:   13.6000 ...   51.4000  mm)

(Spindle Speed: 2000.0 RPM)
G21
G90
G94

G01 F50.00

M5
G00 Z15.0000
G00 X0.0000 Y0.0000
T1
M6    
(MSG, Change to Tool Dia = 0.2000)
M0
G00 Z15.0000

M03 S2000.0
G01 F50.00
G00 X11.3040 Y14.4934
G01 F50.00
G01 Z-0.1866
G01 F50.00
G01 X14.0025 Y14.4934
G01 X14.0497 Y14.4958
G01 X14.0988 Y14.5031
G01 X14.1471 Y14.5152
G01 X14.1961 Y14.5329
G01 X14.2388 Y14.5532
G01 X14.2815 Y14.5788
G01 X14.3214 Y14.6084
G01 X14.3582 Y14.6418
G01 X16.3582 Y16.6418
G01 X16.3916 Y16.6786
G01 X16.4212 Y16.7185
G01 X16.4444 Y16.7569
G01 X16.4490 Y16.7656
G01 X16.4661 Y16.8016
G01 X16.4698 Y16.8107
G01 X16.4848 Y16.8529
G01 X16.4969 Y16.9012
G01 X16.5042 Y16.9503
G01 X16.5066 Y16.9975
G01 X16.5066 Y21.7902
G01 X18.2357 Y23.5192
G01 X18.3000 Y23.4717
G01 X18.3715 Y23.4287
G01 X18.3801 Y23.4241
G01 X18.4511 Y23.3905
G01 X18.4602 Y23.3867
G01 X18.5387 Y23.3588
G01 X18.6244 Y23.3373
G01 X18.7118 Y23.3243
G01 X18.7975 Y23.3200
G01 X19.2049 Y23.3201
G01 X19.2882 Y23.3243
G01 X19.3756 Y23.3373
G01 X19.4613 Y23.3588
G01 X19.5444 Y23.3885
G01 X19.6243 Y23.4263
G01 X19.7000 Y23.4717
G01 X19.7710 Y23.5243
G01 X19.8346 Y23.5819
G01 X19.8398 Y23.5872
G01 X19.8957 Y23.6490
G01 X19.9483 Y23.7200
G01 X19.9937 Y23.7957
G01 X20.0315 Y23.8756
G01 X20.0612 Y23.9587
G01 X20.0827 Y24.0444
G01 X20.0957 Y24.1318
G01 X20.0999 Y24.2151
G01 X20.0999 Y24.2249
G01 X20.0957 Y24.3082
G01 X20.0835 Y24.3907
G01 X20.0816 Y24.4004
G01 X20.0612 Y24.4813
G01 X20.0333 Y24.5598
G01 X20.0295 Y24.5689
G01 X19.9959 Y24.6399
G01 X19.9913 Y24.6485
G01 X19.9483 Y24.7200
G01 X19.8957 Y24.7910
G01 X19.8364 Y24.8564
G01 X19.7710 Y24.9157
G01 X19.7000 Y24.9683
G01 X19.6285 Y25.0113
G01 X19.6199 Y25.0159
G01 X19.5489 Y25.0495
G01 X19.5398 Y25.0533
G01 X19.4613 Y25.0812
G01 X19.3756 Y25.1027
G01 X19.2882 Y25.1157
G01 X19.2025 Y25.1200
G01 X18.7975 Y25.1200
G01 X18.7118 Y25.1157
G01 X18.6268 Y25.1032
G01 X18.6196 Y25.1016
G01 X18.5387 Y25.0812
G01 X18.4556 Y25.0515
G01 X18.3757 Y25.0137
G01 X18.3020 Y24.9697
G01 X18.2960 Y24.9655
G01 X18.2290 Y24.9157
G01 X18.1672 Y24.8598
G01 X18.1619 Y24.8546
G01 X18.1075 Y24.7947
G01 X18.1028 Y24.7890
G01 X18.0531 Y24.7220
G01 X18.0342 Y24.6910
G01 X18.0239 Y24.6871
G01 X17.9812 Y24.6668
G01 X17.9385 Y24.6412
G01 X17.8986 Y24.6116
G01 X17.8618 Y24.5782
G01 X15.6418 Y22.3582
G01 X15.6084 Y22.3214
G01 X15.5774 Y22.2794
G01 X15.5532 Y22.2388
G01 X15.5339 Y22.1984
G01 X15.5302 Y22.1893
G01 X15.5152 Y22.1471
G01 X15.5042 Y22.1036
G01 X15.5023 Y22.0940
G01 X15.4958 Y22.0497
G01 X15.4934 Y22.0025
G01 X15.4934 Y17.2098
G01 X13.7902 Y15.5066
G01 X11.3040 Y15.5066
G01 X11.2925 Y15.5380
G01 X11.2369 Y15.6556
G01 X11.2335 Y15.6621
G01 X11.1641 Y15.7778
G01 X11.0822 Y15.8882
G01 X10.9933 Y15.9864
G01 X10.9864 Y15.9933
G01 X10.8882 Y16.0822
G01 X10.7778 Y16.1641
G01 X10.6600 Y16.2347
G01 X10.5402 Y16.2914
G01 X10.5312 Y16.2952
G01 X10.4064 Y16.3397
G01 X10.2731 Y16.3731
G01 X10.1421 Y16.3927
G01 X10.1323 Y16.3936
G01 X10.0000 Y16.4000
G01 X9.8677 Y16.3936
G01 X9.8579 Y16.3927
G01 X9.7269 Y16.3731
G01 X9.5936 Y16.3397
G01 X9.4642 Y16.2934
G01 X9.3444 Y16.2369
G01 X9.3358 Y16.2323
G01 X9.2222 Y16.1641
G01 X9.1118 Y16.0822
G01 X9.0136 Y15.9933
G01 X9.0067 Y15.9864
G01 X8.9178 Y15.8882
G01 X8.8359 Y15.7778
G01 X8.7677 Y15.6642
G01 X8.7631 Y15.6556
G01 X8.7066 Y15.5358
G01 X8.6603 Y15.4064
G01 X8.6269 Y15.2731
G01 X8.6067 Y15.1372
G01 X8.6000 Y15.0000
G01 X8.6067 Y14.8628
G01 X8.6269 Y14.7269
G01 X8.6603 Y14.5936
G01 X8.7066 Y14.4642
G01 X8.7653 Y14.3400
G01 X8.8359 Y14.2222
G01 X8.9178 Y14.1118
G01 X9.0101 Y14.0101
G01 X9.1118 Y13.9178
G01 X9.2222 Y13.8359
G01 X9.3400 Y13.7653
G01 X9.4642 Y13.7066
G01 X9.5936 Y13.6603
G01 X9.7269 Y13.6269
G01 X9.8628 Y13.6067
G01 X10.0000 Y13.6000
G01 X10.1372 Y13.6067
G01 X10.2731 Y13.6269
G01 X10.4064 Y13.6603
G01 X10.5358 Y13.7066
G01 X10.6600 Y13.7653
G01 X10.7778 Y13.8359
G01 X10.8882 Y13.9178
G01 X10.9899 Y14.0101
G01 X11.0822 Y14.1118
G01 X11.1612 Y14.2182
G01 X11.1654 Y14.2243
G01 X11.2323 Y14.3358
G01 X11.2358 Y14.3422
G01 X11.2925 Y14.4620
G01 X11.3040 Y14.4934
G00 Z5.0000
G00 X11.3040 Y19.4934
G01 F50.00
G01 Z-0.1866
G01 F50.00
G01 X13.0000 Y19.4934
G01 X13.0472 Y19.4956
G01 X13.0988 Y19.5031
G01 X13.1423 Y19.5139
G01 X13.1517 Y19.5168
G01 X13.1893 Y19.5302
G01 X13.1984 Y19.5339
G01 X13.2388 Y19.5532
G01 X13.2815 Y19.5788
G01 X13.3214 Y19.6084
G01 X13.3547 Y19.6384
G01 X13.3616 Y19.6453
G01 X13.3916 Y19.6786
G01 X13.4184 Y19.7145
G01 X13.4239 Y19.7227
G01 X13.4444 Y19.7569
G01 X13.4490 Y19.7656
G01 X13.4680 Y19.8061
G01 X13.4848 Y19.8529
G01 X13.4969 Y19.9012
G01 X13.5044 Y19.9528
G01 X13.5066 Y20.0000
G01 X13.5066 Y21.7902
G01 X17.9698 Y26.2534
G01 X18.0564 Y26.2534
G01 X18.1043 Y26.1890
G01 X18.1602 Y26.1272
G01 X18.1672 Y26.1202
G01 X18.2253 Y26.0675
G01 X18.2329 Y26.0613
G01 X18.3000 Y26.0117
G01 X18.3757 Y25.9663
G01 X18.4556 Y25.9285
G01 X18.5387 Y25.8988
G01 X18.6244 Y25.8773
G01 X18.7118 Y25.8643
G01 X18.8000 Y25.8600
G01 X19.2025 Y25.8600
G01 X19.2882 Y25.8643
G01 X19.3756 Y25.8773
G01 X19.4565 Y25.8974
G01 X19.4659 Y25.9003
G01 X19.5444 Y25.9285
G01 X19.6199 Y25.9641
G01 X19.6285 Y25.9687
G01 X19.7000 Y26.0117
G01 X19.7671 Y26.0613
G01 X19.7747 Y26.0675
G01 X19.8364 Y26.1236
G01 X19.8957 Y26.1890
G01 X19.9483 Y26.2600
G01 X19.9937 Y26.3357
G01 X20.0315 Y26.4156
G01 X20.0612 Y26.4987
G01 X20.0827 Y26.5844
G01 X20.0951 Y26.6669
G01 X20.0960 Y26.6767
G01 X20.1000 Y26.7600
G01 X20.0957 Y26.8482
G01 X20.0827 Y26.9356
G01 X20.0626 Y27.0165
G01 X20.0597 Y27.0259
G01 X20.0333 Y27.0998
G01 X20.0295 Y27.1089
G01 X19.9937 Y27.1843
G01 X19.9509 Y27.2559
G01 X19.9455 Y27.2640
G01 X19.8957 Y27.3310
G01 X19.8398 Y27.3928
G01 X19.8328 Y27.3998
G01 X19.7747 Y27.4525
G01 X19.7671 Y27.4587
G01 X19.7000 Y27.5083
G01 X19.6243 Y27.5537
G01 X19.5489 Y27.5895
G01 X19.5398 Y27.5933
G01 X19.4613 Y27.6212
G01 X19.3780 Y27.6422
G01 X19.3707 Y27.6435
G01 X19.2882 Y27.6557
G01 X19.2025 Y27.6600
G01 X18.8000 Y27.6600
G01 X18.7167 Y27.6560
G01 X18.7093 Y27.6554
G01 X18.6244 Y27.6427
G01 X18.5387 Y27.6212
G01 X18.4556 Y27.5915
G01 X18.3801 Y27.5559
G01 X18.3715 Y27.5513
G01 X18.3000 Y27.5083
G01 X18.2329 Y27.4587
G01 X18.2253 Y27.4525
G01 X18.1672 Y27.3998
G01 X18.1602 Y27.3928
G01 X18.1043 Y27.3310
G01 X18.0564 Y27.2666
G01 X17.7575 Y27.2666
G01 X17.7103 Y27.2642
G01 X17.6588 Y27.2564
G01 X17.6129 Y27.2448
G01 X17.5707 Y27.2298
G01 X17.5616 Y27.2261
G01 X17.5212 Y27.2068
G01 X17.4827 Y27.1839
G01 X17.4745 Y27.1784
G01 X17.4386 Y27.1516
G01 X17.4035 Y27.1199
G01 X12.6418 Y22.3582
G01 X12.6116 Y22.3251
G01 X12.6054 Y22.3175
G01 X12.5788 Y22.2815
G01 X12.5556 Y22.2431
G01 X12.5510 Y22.2344
G01 X12.5320 Y22.1939
G01 X12.5152 Y22.1471
G01 X12.5042 Y22.1036
G01 X12.5023 Y22.0940
G01 X12.4956 Y22.0472
G01 X12.4934 Y22.0000
G01 X12.4934 Y20.5066
G01 X11.3040 Y20.5066
G01 X11.2925 Y20.5380
G01 X11.2369 Y20.6556
G01 X11.2335 Y20.6621
G01 X11.1641 Y20.7778
G01 X11.0822 Y20.8882
G01 X10.9933 Y20.9864
G01 X10.9864 Y20.9933
G01 X10.8882 Y21.0822
G01 X10.7778 Y21.1641
G01 X10.6600 Y21.2347
G01 X10.5402 Y21.2914
G01 X10.5312 Y21.2952
G01 X10.4064 Y21.3397
G01 X10.2731 Y21.3731
G01 X10.1421 Y21.3927
G01 X10.1323 Y21.3936
G01 X10.0000 Y21.4000
G01 X9.8677 Y21.3936
G01 X9.8579 Y21.3927
G01 X9.7269 Y21.3731
G01 X9.5936 Y21.3397
G01 X9.4642 Y21.2934
G01 X9.3444 Y21.2369
G01 X9.3358 Y21.2323
G01 X9.2222 Y21.1641
G01 X9.1118 Y21.0822
G01 X9.0136 Y20.9933
G01 X9.0067 Y20.9864
G01 X8.9178 Y20.8882
G01 X8.8359 Y20.7778
G01 X8.7677 Y20.6642
G01 X8.7631 Y20.6556
G01 X8.7066 Y20.5358
G01 X8.6603 Y20.4064
G01 X8.6269 Y20.2731
G01 X8.6067 Y20.1372
G01 X8.6000 Y20.0000
G01 X8.6067 Y19.8628
G01 X8.6269 Y19.7269
G01 X8.6603 Y19.5936
G01 X8.7066 Y19.4642
G01 X8.7653 Y19.3400
G01 X8.8359 Y19.2222
G01 X8.9178 Y19.1118
G01 X9.0101 Y19.0101
G01 X9.1118 Y18.9178
G01 X9.2222 Y18.8359
G01 X9.3400 Y18.7653
G01 X9.4642 Y18.7066
G01 X9.5936 Y18.6603
G01 X9.7269 Y18.6269
G01 X9.8628 Y18.6067
G01 X10.0000 Y18.6000
G01 X10.1372 Y18.6067
G01 X10.2731 Y18.6269
G01 X10.4064 Y18.6603
G01 X10.5358 Y18.7066
G01 X10.6600 Y18.7653
G01 X10.7778 Y18.8359
G01 X10.8882 Y18.9178
G01 X10.9899 Y19.0101
G01 X11.0822 Y19.1118
G01 X11.1612 Y19.2182
G01 X11.1654 Y19.2243
G01 X11.2323 Y19.3358
G01 X11.2358 Y19.3422
G01 X11.2925 Y19.4620
G01 X11.3040 Y19.4934
G00 Z5.0000
G00 X11.3040 Y24.4934
G01 F50.00
G01 Z-0.1866
G01 F50.00
G01 X12.0000 Y24.4934
G01 X12.0521 Y24.4961
G01 X12.0988 Y24.5031
G01 X12.1423 Y24.5139
G01 X12.1517 Y24.5168
G01 X12.1939 Y24.5320
G01 X12.2344 Y24.5510
G01 X12.2431 Y24.5556
G01 X12.2815 Y24.5788
G01 X12.3214 Y24.6084
G01 X12.3582 Y24.6418
G01 X16.5098 Y28.7934
G01 X18.0564 Y28.7934
G01 X18.1043 Y28.7290
G01 X18.1636 Y28.6636
G01 X18.2290 Y28.6043
G01 X18.2960 Y28.5545
G01 X18.3041 Y28.5491
G01 X18.3715 Y28.5087
G01 X18.3801 Y28.5041
G01 X18.4556 Y28.4685
G01 X18.5341 Y28.4403
G01 X18.5435 Y28.4374
G01 X18.6244 Y28.4173
G01 X18.7069 Y28.4049
G01 X18.7167 Y28.4040
G01 X18.8000 Y28.4000
G01 X19.2000 Y28.4000
G01 X19.2833 Y28.4040
G01 X19.2931 Y28.4049
G01 X19.3756 Y28.4173
G01 X19.4613 Y28.4388
G01 X19.5444 Y28.4685
G01 X19.6199 Y28.5041
G01 X19.6285 Y28.5087
G01 X19.6959 Y28.5491
G01 X19.7040 Y28.5545
G01 X19.7710 Y28.6043
G01 X19.8328 Y28.6602
G01 X19.8398 Y28.6672
G01 X19.8957 Y28.7290
G01 X19.9483 Y28.8000
G01 X19.9937 Y28.8757
G01 X20.0295 Y28.9511
G01 X20.0333 Y28.9602
G01 X20.0597 Y29.0341
G01 X20.0626 Y29.0435
G01 X20.0827 Y29.1244
G01 X20.0951 Y29.2069
G01 X20.0960 Y29.2167
G01 X20.1000 Y29.3000
G01 X20.0957 Y29.3882
G01 X20.0827 Y29.4756
G01 X20.0626 Y29.5565
G01 X20.0597 Y29.5659
G01 X20.0333 Y29.6398
G01 X20.0295 Y29.6489
G01 X19.9937 Y29.7243
G01 X19.9509 Y29.7959
G01 X19.9455 Y29.8040
G01 X19.8957 Y29.8710
G01 X19.8398 Y29.9328
G01 X19.8328 Y29.9398
G01 X19.7747 Y29.9925
G01 X19.7671 Y29.9987
G01 X19.7000 Y30.0483
G01 X19.6243 Y30.0937
G01 X19.5444 Y30.1315
G01 X19.4659 Y30.1597
G01 X19.4565 Y30.1626
G01 X19.3756 Y30.1827
G01 X19.2931 Y30.1951
G01 X19.2833 Y30.1960
G01 X19.2000 Y30.2000
G01 X18.8000 Y30.2000
G01 X18.7118 Y30.1957
G01 X18.6293 Y30.1835
G01 X18.6196 Y30.1816
G01 X18.5387 Y30.1612
G01 X18.4602 Y30.1333
G01 X18.4511 Y30.1295
G01 X18.3757 Y30.0937
G01 X18.3000 Y30.0483
G01 X18.2329 Y29.9987
G01 X18.2253 Y29.9925
G01 X18.1672 Y29.9398
G01 X18.1602 Y29.9328
G01 X18.1043 Y29.8710
G01 X18.0564 Y29.8066
G01 X16.2975 Y29.8066
G01 X16.2503 Y29.8042
G01 X16.2012 Y29.7969
G01 X16.1529 Y29.7848
G01 X16.1084 Y29.7690
G01 X16.0612 Y29.7468
G01 X16.0185 Y29.7212
G01 X15.9786 Y29.6916
G01 X15.9418 Y29.6582
G01 X11.7902 Y25.5066
G01 X11.3040 Y25.5066
G01 X11.2925 Y25.5380
G01 X11.2369 Y25.6556
G01 X11.2335 Y25.6621
G01 X11.1641 Y25.7778
G01 X11.0822 Y25.8882
G01 X10.9933 Y25.9864
G01 X10.9864 Y25.9933
G01 X10.8882 Y26.0822
G01 X10.7778 Y26.1641
G01 X10.6600 Y26.2347
G01 X10.5402 Y26.2914
G01 X10.5312 Y26.2952
G01 X10.4064 Y26.3397
G01 X10.2731 Y26.3731
G01 X10.1421 Y26.3927
G01 X10.1323 Y26.3936
G01 X10.0000 Y26.4000
G01 X9.8677 Y26.3936
G01 X9.8579 Y26.3927
G01 X9.7269 Y26.3731
G01 X9.5936 Y26.3397
G01 X9.4642 Y26.2934
G01 X9.3444 Y26.2369
G01 X9.3358 Y26.2323
G01 X9.2222 Y26.1641
G01 X9.1118 Y26.0822
G01 X9.0136 Y25.9933
G01 X9.0067 Y25.9864
G01 X8.9178 Y25.8882
G01 X8.8359 Y25.7778
G01 X8.7677 Y25.6642
G01 X8.7631 Y25.6556
G01 X8.7066 Y25.5358
G01 X8.6603 Y25.4064
G01 X8.6269 Y25.2731
G01 X8.6067 Y25.1372
G01 X8.6000 Y25.0000
G01 X8.6067 Y24.8628
G01 X8.6269 Y24.7269
G01 X8.6603 Y24.5936
G01 X8.7066 Y24.4642
G01 X8.7653 Y24.3400
G01 X8.8359 Y24.2222
G01 X8.9178 Y24.1118
G01 X9.0101 Y24.0101
G01 X9.1118 Y23.9178
G01 X9.2222 Y23.8359
G01 X9.3400 Y23.7653
G01 X9.4642 Y23.7066
G01 X9.5936 Y23.6603
G01 X9.7269 Y23.6269
G01 X9.8628 Y23.6067
G01 X10.0000 Y23.6000
G01 X10.1372 Y23.6067
G01 X10.2731 Y23.6269
G01 X10.4064 Y23.6603
G01 X10.5358 Y23.7066
G01 X10.6600 Y23.7653
G01 X10.7778 Y23.8359
G01 X10.8882 Y23.9178
G01 X10.9899 Y24.0101
G01 X11.0822 Y24.1118
G01 X11.1612 Y24.2182
G01 X11.1654 Y24.2243
G01 X11.2323 Y24.3358
G01 X11.2358 Y24.3422
G01 X11.2925 Y24.4620
G01 X11.3040 Y24.4934
G00 Z5.0000
G00 X11.3040 Y29.4934
G01 F50.00
G01 Z-0.1866
G01 F50.00
G01 X13.0025 Y29.4934
G01 X13.0497 Y29.4958
G01 X13.0940 Y29.5023
G01 X13.1036 Y29.5042
G01 X13.1471 Y29.5152
G01 X13.1893 Y29.5302
G01 X13.1984 Y29.5339
G01 X13.2366 Y29.5521
G01 X13.2773 Y29.5761
G01 X13.2855 Y29.5816
G01 X13.3214 Y29.6084
G01 X13.3582 Y29.6418
G01 X15.0498 Y31.3334
G01 X18.0564 Y31.3334
G01 X18.1043 Y31.2690
G01 X18.1636 Y31.2036
G01 X18.2290 Y31.1443
G01 X18.2960 Y31.0945
G01 X18.3041 Y31.0891
G01 X18.3715 Y31.0487
G01 X18.3801 Y31.0441
G01 X18.4556 Y31.0085
G01 X18.5341 Y30.9803
G01 X18.5435 Y30.9774
G01 X18.6244 Y30.9573
G01 X18.7069 Y30.9449
G01 X18.7167 Y30.9440
G01 X18.8000 Y30.9400
G01 X19.2000 Y30.9400
G01 X19.2833 Y30.9440
G01 X19.2931 Y30.9449
G01 X19.3756 Y30.9573
G01 X19.4613 Y30.9788
G01 X19.5444 Y31.0085
G01 X19.6243 Y31.0463
G01 X19.7000 Y31.0917
G01 X19.7710 Y31.1443
G01 X19.8364 Y31.2036
G01 X19.8957 Y31.2690
G01 X19.9483 Y31.3400
G01 X19.9937 Y31.4157
G01 X20.0315 Y31.4956
G01 X20.0612 Y31.5787
G01 X20.0827 Y31.6644
G01 X20.0957 Y31.7518
G01 X20.1000 Y31.8400
G01 X20.0957 Y31.9282
G01 X20.0827 Y32.0156
G01 X20.0612 Y32.1013
G01 X20.0333 Y32.1798
G01 X20.0295 Y32.1889
G01 X19.9937 Y32.2643
G01 X19.9483 Y32.3400
G01 X19.8957 Y32.4110
G01 X19.8398 Y32.4728
G01 X19.8328 Y32.4798
G01 X19.7747 Y32.5325
G01 X19.7671 Y32.5387
G01 X19.7000 Y32.5883
G01 X19.6243 Y32.6337
G01 X19.5444 Y32.6715
G01 X19.4659 Y32.6997
G01 X19.4565 Y32.7026
G01 X19.3804 Y32.7216
G01 X19.3707 Y32.7235
G01 X19.2882 Y32.7357
G01 X19.2049 Y32.7399
G01 X18.8000 Y32.7400
G01 X18.7167 Y32.7360
G01 X18.7069 Y32.7351
G01 X18.6244 Y32.7227
G01 X18.5435 Y32.7026
G01 X18.5364 Y32.7005
G01 X18.4556 Y32.6715
G01 X18.3801 Y32.6359
G01 X18.3715 Y32.6313
G01 X18.3041 Y32.5909
G01 X18.2960 Y32.5855
G01 X18.2290 Y32.5357
G01 X18.1636 Y32.4764
G01 X18.1043 Y32.4110
G01 X18.0564 Y32.3466
G01 X14.8400 Y32.3466
G01 X14.7952 Y32.3445
G01 X14.7855 Y32.3436
G01 X14.7412 Y32.3369
G01 X14.6929 Y32.3248
G01 X14.6461 Y32.3080
G01 X14.6056 Y32.2890
G01 X14.5969 Y32.2844
G01 X14.5627 Y32.2639
G01 X14.5545 Y32.2584
G01 X14.5186 Y32.2316
G01 X14.4853 Y32.2016
G01 X12.7902 Y30.5066
G01 X11.3040 Y30.5066
G01 X11.2925 Y30.5380
G01 X11.2369 Y30.6556
G01 X11.2335 Y30.6621
G01 X11.1641 Y30.7778
G01 X11.0822 Y30.8882
G01 X10.9933 Y30.9864
G01 X10.9864 Y30.9933
G01 X10.8882 Y31.0822
G01 X10.7778 Y31.1641
G01 X10.6600 Y31.2347
G01 X10.5402 Y31.2914
G01 X10.5312 Y31.2952
G01 X10.4064 Y31.3397
G01 X10.2731 Y31.3731
G01 X10.1421 Y31.3927
G01 X10.1323 Y31.3936
G01 X10.0000 Y31.4000
G01 X9.8677 Y31.3936
G01 X9.8579 Y31.3927
G01 X9.7269 Y31.3731
G01 X9.5936 Y31.3397
G01 X9.4642 Y31.2934
G01 X9.3444 Y31.2369
G01 X9.3358 Y31.2323
G01 X9.2222 Y31.1641
G01 X9.1118 Y31.0822
G01 X9.0136 Y30.9933
G01 X9.0067 Y30.9864
G01 X8.9178 Y30.8882
G01 X8.8359 Y30.7778
G01 X8.7677 Y30.6642
G01 X8.7631 Y30.6556
G01 X8.7066 Y30.5358
G01 X8.6603 Y30.4064
G01 X8.6269 Y30.2731
G01 X8.6067 Y30.1372
G01 X8.6000 Y30.0000
G01 X8.6067 Y29.8628
G01 X8.6269 Y29.7269
G01 X8.6603 Y29.5936
G01 X8.7066 Y29.4642
G01 X8.7653 Y29.3400
G01 X8.8359 Y29.2222
G01 X8.9178 Y29.1118
G01 X9.0101 Y29.0101
G01 X9.1118 Y28.9178
G01 X9.2222 Y28.8359
G01 X9.3400 Y28.7653
G01 X9.4642 Y28.7066
G01 X9.5936 Y28.6603
G01 X9.7269 Y28.6269
G01 X9.8628 Y28.6067
G01 X10.0000 Y28.6000
G01 X10.1372 Y28.6067
G01 X10.2731 Y28.6269
G01 X10.4064 Y28.6603
G01 X10.5358 Y28.7066
G01 X10.6600 Y28.7653
G01 X10.7778 Y28.8359
G01 X10.8882 Y28.9178
G01 X10.9899 Y29.0101
G01 X11.0822 Y29.1118
G01 X11.1612 Y29.2182
G01 X11.1654 Y29.2243
G01 X11.2323 Y29.3358
G01 X11.2358 Y29.3422
G01 X11.2925 Y29.4620
G01 X11.3040 Y29.4934
G00 Z5.0000
G00 X11.3040 Y34.4934
G01 F50.00
G01 Z-0.1866
G01 F50.00
G01 X17.9079 Y34.4934
G01 X17.9041 Y34.4658
G01 X17.9000 Y34.3825
G01 X17.9001 Y34.3751
G01 X17.9041 Y34.2942
G01 X17.9049 Y34.2869
G01 X17.9173 Y34.2044
G01 X17.9381 Y34.1211
G01 X17.9403 Y34.1141
G01 X17.9685 Y34.0356
G01 X18.0063 Y33.9557
G01 X18.0517 Y33.8800
G01 X18.1013 Y33.8129
G01 X18.1059 Y33.8072
G01 X18.1636 Y33.7436
G01 X18.2253 Y33.6875
G01 X18.2329 Y33.6813
G01 X18.2960 Y33.6345
G01 X18.3041 Y33.6291
G01 X18.3757 Y33.5863
G01 X18.4511 Y33.5505
G01 X18.4602 Y33.5467
G01 X18.5387 Y33.5188
G01 X18.6244 Y33.4973
G01 X18.7118 Y33.4843
G01 X18.7975 Y33.4800
G01 X19.2025 Y33.4800
G01 X19.2882 Y33.4843
G01 X19.3732 Y33.4968
G01 X19.3804 Y33.4984
G01 X19.4613 Y33.5188
G01 X19.5444 Y33.5485
G01 X19.6243 Y33.5863
G01 X19.6959 Y33.6291
G01 X19.7020 Y33.6331
G01 X19.7671 Y33.6813
G01 X19.7747 Y33.6875
G01 X19.8364 Y33.7436
G01 X19.8925 Y33.8053
G01 X19.8987 Y33.8129
G01 X19.9483 Y33.8800
G01 X19.9937 Y33.9557
G01 X20.0315 Y34.0356
G01 X20.0597 Y34.1141
G01 X20.0626 Y34.1235
G01 X20.0827 Y34.2044
G01 X20.0951 Y34.2869
G01 X20.0960 Y34.2967
G01 X20.1000 Y34.3775
G01 X20.0999 Y34.3849
G01 X20.0957 Y34.4682
G01 X20.0835 Y34.5507
G01 X20.0816 Y34.5604
G01 X20.0612 Y34.6413
G01 X20.0333 Y34.7198
G01 X20.0295 Y34.7289
G01 X19.9937 Y34.8043
G01 X19.9483 Y34.8800
G01 X19.8987 Y34.9471
G01 X19.8925 Y34.9547
G01 X19.8364 Y35.0164
G01 X19.7747 Y35.0725
G01 X19.7671 Y35.0787
G01 X19.7020 Y35.1269
G01 X19.6959 Y35.1309
G01 X19.6243 Y35.1737
G01 X19.5444 Y35.2115
G01 X19.4613 Y35.2412
G01 X19.3804 Y35.2616
G01 X19.3732 Y35.2632
G01 X19.2882 Y35.2757
G01 X19.2025 Y35.2800
G01 X18.8022 Y35.2800
G01 X18.7716 Y35.3214
G01 X18.7382 Y35.3582
G01 X18.7014 Y35.3916
G01 X18.6615 Y35.4212
G01 X18.6188 Y35.4468
G01 X18.5739 Y35.4680
G01 X18.5271 Y35.4848
G01 X18.4788 Y35.4969
G01 X18.4297 Y35.5042
G01 X18.3800 Y35.5066
G01 X11.3040 Y35.5066
G01 X11.2925 Y35.5380
G01 X11.2358 Y35.6578
G01 X11.2323 Y35.6642
G01 X11.1667 Y35.7737
G01 X11.1612 Y35.7818
G01 X11.0822 Y35.8882
G01 X10.9933 Y35.9864
G01 X10.9864 Y35.9933
G01 X10.8919 Y36.0790
G01 X10.8843 Y36.0852
G01 X10.7778 Y36.1641
G01 X10.6642 Y36.2323
G01 X10.6556 Y36.2369
G01 X10.5358 Y36.2934
G01 X10.4064 Y36.3397
G01 X10.2779 Y36.3720
G01 X10.2683 Y36.3739
G01 X10.1372 Y36.3933
G01 X10.0000 Y36.4000
G01 X9.8677 Y36.3936
G01 X9.8579 Y36.3927
G01 X9.7317 Y36.3739
G01 X9.7221 Y36.3720
G01 X9.5936 Y36.3397
G01 X9.4642 Y36.2934
G01 X9.3400 Y36.2347
G01 X9.2263 Y36.1667
G01 X9.2182 Y36.1612
G01 X9.1157 Y36.0852
G01 X9.1081 Y36.0790
G01 X9.0101 Y35.9899
G01 X8.9178 Y35.8882
G01 X8.8359 Y35.7778
G01 X8.7677 Y35.6642
G01 X8.7631 Y35.6556
G01 X8.7066 Y35.5358
G01 X8.6603 Y35.4064
G01 X8.6269 Y35.2731
G01 X8.6067 Y35.1372
G01 X8.6000 Y35.0000
G01 X8.6067 Y34.8628
G01 X8.6269 Y34.7269
G01 X8.6603 Y34.5936
G01 X8.7066 Y34.4642
G01 X8.7653 Y34.3400
G01 X8.8359 Y34.2222
G01 X8.9178 Y34.1118
G01 X9.0101 Y34.0101
G01 X9.1118 Y33.9178
G01 X9.2222 Y33.8359
G01 X9.3400 Y33.7653
G01 X9.4642 Y33.7066
G01 X9.5936 Y33.6603
G01 X9.7269 Y33.6269
G01 X9.8628 Y33.6067
G01 X10.0000 Y33.6000
G01 X10.1372 Y33.6067
G01 X10.2731 Y33.6269
G01 X10.4064 Y33.6603
G01 X10.5358 Y33.7066
G01 X10.6600 Y33.7653
G01 X10.7778 Y33.8359
G01 X10.8882 Y33.9178
G01 X10.9899 Y34.0101
G01 X11.0822 Y34.1118
G01 X11.1612 Y34.2182
G01 X11.1654 Y34.2243
G01 X11.2323 Y34.3358
G01 X11.2358 Y34.3422
G01 X11.2925 Y34.4620
G01 X11.3040 Y34.4934
G00 Z5.0000
G00 X10.5638 Y38.7197
G01 F50.00
G01 Z-0.1866
G01 F50.00
G01 X12.6435 Y36.6401
G01 X12.6786 Y36.6084
G01 X12.7145 Y36.5816
G01 X12.7227 Y36.5761
G01 X12.7612 Y36.5532
G01 X12.8016 Y36.5339
G01 X12.8107 Y36.5302
G01 X12.8529 Y36.5152
G01 X12.9012 Y36.5031
G01 X12.9503 Y36.4958
G01 X13.0000 Y36.4934
G01 X18.0076 Y36.4934
G01 X18.0517 Y36.4200
G01 X18.1043 Y36.3490
G01 X18.1636 Y36.2836
G01 X18.2253 Y36.2275
G01 X18.2329 Y36.2213
G01 X18.2960 Y36.1745
G01 X18.3041 Y36.1691
G01 X18.3757 Y36.1263
G01 X18.4511 Y36.0905
G01 X18.4579 Y36.0876
G01 X18.5387 Y36.0588
G01 X18.6196 Y36.0384
G01 X18.6293 Y36.0365
G01 X18.7118 Y36.0243
G01 X18.8000 Y36.0200
G01 X19.2025 Y36.0200
G01 X19.2882 Y36.0243
G01 X19.3756 Y36.0373
G01 X19.4613 Y36.0588
G01 X19.5398 Y36.0867
G01 X19.5489 Y36.0905
G01 X19.6199 Y36.1241
G01 X19.6285 Y36.1287
G01 X19.7000 Y36.1717
G01 X19.7710 Y36.2243
G01 X19.8364 Y36.2836
G01 X19.8957 Y36.3490
G01 X19.9483 Y36.4200
G01 X19.9913 Y36.4915
G01 X19.9959 Y36.5001
G01 X20.0295 Y36.5711
G01 X20.0333 Y36.5802
G01 X20.0612 Y36.6587
G01 X20.0827 Y36.7444
G01 X20.0957 Y36.8318
G01 X20.1000 Y36.9200
G01 X20.0957 Y37.0082
G01 X20.0827 Y37.0956
G01 X20.0612 Y37.1813
G01 X20.0315 Y37.2644
G01 X19.9937 Y37.3443
G01 X19.9509 Y37.4159
G01 X19.9455 Y37.4240
G01 X19.8957 Y37.4910
G01 X19.8398 Y37.5528
G01 X19.8328 Y37.5598
G01 X19.7710 Y37.6157
G01 X19.7040 Y37.6655
G01 X19.6959 Y37.6709
G01 X19.6285 Y37.7113
G01 X19.6199 Y37.7159
G01 X19.5444 Y37.7515
G01 X19.4613 Y37.7812
G01 X19.3756 Y37.8027
G01 X19.2882 Y37.8157
G01 X19.2000 Y37.8200
G01 X18.7951 Y37.8199
G01 X18.7118 Y37.8157
G01 X18.6293 Y37.8035
G01 X18.6196 Y37.8016
G01 X18.5411 Y37.7819
G01 X18.4602 Y37.7533
G01 X18.4511 Y37.7495
G01 X18.3757 Y37.7137
G01 X18.3000 Y37.6683
G01 X18.2329 Y37.6187
G01 X18.2253 Y37.6125
G01 X18.1636 Y37.5564
G01 X18.1183 Y37.5066
G01 X13.2098 Y37.5066
G01 X11.2803 Y39.4362
G01 X11.2943 Y39.4665
G01 X11.3382 Y39.5889
G01 X11.3404 Y39.5960
G01 X11.3731 Y39.7269
G01 X11.3933 Y39.8628
G01 X11.3999 Y39.9951
G01 X11.3999 Y40.0049
G01 X11.3933 Y40.1372
G01 X11.3731 Y40.2731
G01 X11.3410 Y40.4017
G01 X11.3382 Y40.4111
G01 X11.2934 Y40.5358
G01 X11.2347 Y40.6600
G01 X11.1667 Y40.7737
G01 X11.1612 Y40.7818
G01 X11.0822 Y40.8882
G01 X10.9899 Y40.9899
G01 X10.8882 Y41.0822
G01 X10.7818 Y41.1612
G01 X10.7737 Y41.1667
G01 X10.6600 Y41.2347
G01 X10.5402 Y41.2914
G01 X10.5312 Y41.2952
G01 X10.4064 Y41.3397
G01 X10.2731 Y41.3731
G01 X10.1421 Y41.3927
G01 X10.1323 Y41.3936
G01 X10.0000 Y41.4000
G01 X9.8628 Y41.3933
G01 X9.7269 Y41.3731
G01 X9.5983 Y41.3410
G01 X9.5889 Y41.3382
G01 X9.4642 Y41.2934
G01 X9.3400 Y41.2347
G01 X9.2222 Y41.1641
G01 X9.1118 Y41.0822
G01 X9.0101 Y40.9899
G01 X8.9178 Y40.8882
G01 X8.8359 Y40.7778
G01 X8.7653 Y40.6600
G01 X8.7066 Y40.5358
G01 X8.6603 Y40.4064
G01 X8.6269 Y40.2731
G01 X8.6067 Y40.1372
G01 X8.6000 Y40.0000
G01 X8.6067 Y39.8628
G01 X8.6269 Y39.7269
G01 X8.6603 Y39.5936
G01 X8.7066 Y39.4642
G01 X8.7653 Y39.3400
G01 X8.8359 Y39.2222
G01 X8.9178 Y39.1118
G01 X9.0101 Y39.0101
G01 X9.1118 Y38.9178
G01 X9.2222 Y38.8359
G01 X9.3400 Y38.7653
G01 X9.4642 Y38.7066
G01 X9.5936 Y38.6603
G01 X9.7269 Y38.6269
G01 X9.8628 Y38.6067
G01 X10.0000 Y38.6000
G01 X10.1372 Y38.6067
G01 X10.2683 Y38.6261
G01 X10.2755 Y38.6274
G01 X10.4017 Y38.6590
G01 X10.4087 Y38.6610
G01 X10.5335 Y38.7057
G01 X10.5638 Y38.7197
G00 Z5.0000
G00 X10.5638 Y43.7197
G01 F50.00
G01 Z-0.1866
G01 F50.00
G01 X13.4934 Y40.7902
G01 X13.4934 Y40.0000
G01 X13.4958 Y39.9503
G01 X13.5036 Y39.8988
G01 X13.5152 Y39.8529
G01 X13.5302 Y39.8107
G01 X13.5339 Y39.8016
G01 X13.5532 Y39.7612
G01 X13.5761 Y39.7227
G01 X13.5816 Y39.7145
G01 X13.6054 Y39.6825
G01 X13.6116 Y39.6749
G01 X13.6418 Y39.6418
G01 X13.6786 Y39.6084
G01 X13.7185 Y39.5788
G01 X13.7634 Y39.5521
G01 X13.8016 Y39.5339
G01 X13.8107 Y39.5302
G01 X13.8529 Y39.5152
G01 X13.8964 Y39.5042
G01 X13.9060 Y39.5023
G01 X13.9503 Y39.4958
G01 X13.9975 Y39.4934
G01 X17.9015 Y39.4934
G01 X17.9000 Y39.4575
G01 X17.9040 Y39.3767
G01 X17.9046 Y39.3693
G01 X17.9173 Y39.2844
G01 X17.9374 Y39.2035
G01 X17.9395 Y39.1964
G01 X17.9685 Y39.1156
G01 X18.0063 Y39.0357
G01 X18.0517 Y38.9600
G01 X18.1013 Y38.8929
G01 X18.1059 Y38.8872
G01 X18.1636 Y38.8236
G01 X18.2290 Y38.7643
G01 X18.3000 Y38.7117
G01 X18.3757 Y38.6663
G01 X18.4556 Y38.6285
G01 X18.5387 Y38.5988
G01 X18.6244 Y38.5773
G01 X18.7069 Y38.5649
G01 X18.7142 Y38.5641
G01 X18.8000 Y38.5600
G01 X19.2000 Y38.5600
G01 X19.2858 Y38.5641
G01 X19.3707 Y38.5765
G01 X19.3804 Y38.5784
G01 X19.4613 Y38.5988
G01 X19.5398 Y38.6267
G01 X19.5489 Y38.6305
G01 X19.6243 Y38.6663
G01 X19.6959 Y38.7091
G01 X19.7040 Y38.7145
G01 X19.7671 Y38.7613
G01 X19.7747 Y38.7675
G01 X19.8364 Y38.8236
G01 X19.8957 Y38.8890
G01 X19.9483 Y38.9600
G01 X19.9913 Y39.0315
G01 X19.9949 Y39.0379
G01 X20.0315 Y39.1156
G01 X20.0597 Y39.1941
G01 X20.0626 Y39.2035
G01 X20.0827 Y39.2844
G01 X20.0951 Y39.3669
G01 X20.0960 Y39.3767
G01 X20.0999 Y39.4551
G01 X20.0999 Y39.4649
G01 X20.0957 Y39.5482
G01 X20.0827 Y39.6356
G01 X20.0612 Y39.7213
G01 X20.0315 Y39.8044
G01 X19.9937 Y39.8843
G01 X19.9509 Y39.9559
G01 X19.9455 Y39.9640
G01 X19.8957 Y40.0310
G01 X19.8398 Y40.0928
G01 X19.8328 Y40.0998
G01 X19.7747 Y40.1525
G01 X19.7671 Y40.1587
G01 X19.7000 Y40.2083
G01 X19.6243 Y40.2537
G01 X19.5444 Y40.2915
G01 X19.4659 Y40.3197
G01 X19.4589 Y40.3219
G01 X19.3756 Y40.3427
G01 X19.2931 Y40.3551
G01 X19.2833 Y40.3560
G01 X19.2000 Y40.3600
G01 X18.8164 Y40.3600
G01 X18.7814 Y40.3916
G01 X18.7415 Y40.4212
G01 X18.6988 Y40.4468
G01 X18.6539 Y40.4680
G01 X18.6071 Y40.4848
G01 X18.5588 Y40.4969
G01 X18.5097 Y40.5042
G01 X18.4649 Y40.5065
G01 X14.5066 Y40.5066
G01 X14.5066 Y41.0000
G01 X14.5045 Y41.0448
G01 X14.5036 Y41.0545
G01 X14.4969 Y41.0988
G01 X14.4861 Y41.1423
G01 X14.4832 Y41.1517
G01 X14.4680 Y41.1939
G01 X14.4490 Y41.2344
G01 X14.4444 Y41.2431
G01 X14.4212 Y41.2815
G01 X14.3916 Y41.3214
G01 X14.3582 Y41.3582
G01 X11.2803 Y44.4362
G01 X11.2943 Y44.4665
G01 X11.3390 Y44.5913
G01 X11.3410 Y44.5983
G01 X11.3720 Y44.7221
G01 X11.3739 Y44.7317
G01 X11.3933 Y44.8628
G01 X11.3999 Y44.9951
G01 X11.3999 Y45.0049
G01 X11.3936 Y45.1323
G01 X11.3927 Y45.1421
G01 X11.3731 Y45.2731
G01 X11.3410 Y45.4017
G01 X11.3382 Y45.4111
G01 X11.2934 Y45.5358
G01 X11.2347 Y45.6600
G01 X11.1667 Y45.7737
G01 X11.1612 Y45.7818
G01 X11.0852 Y45.8843
G01 X11.0806 Y45.8900
G01 X10.9899 Y45.9899
G01 X10.8919 Y46.0790
G01 X10.8843 Y46.0852
G01 X10.7818 Y46.1612
G01 X10.7737 Y46.1667
G01 X10.6600 Y46.2347
G01 X10.5358 Y46.2934
G01 X10.4064 Y46.3397
G01 X10.2779 Y46.3720
G01 X10.2683 Y46.3739
G01 X10.1421 Y46.3927
G01 X10.1323 Y46.3936
G01 X10.0000 Y46.4000
G01 X9.8628 Y46.3933
G01 X9.7269 Y46.3731
G01 X9.5983 Y46.3410
G01 X9.5889 Y46.3382
G01 X9.4642 Y46.2934
G01 X9.3400 Y46.2347
G01 X9.2222 Y46.1641
G01 X9.1118 Y46.0822
G01 X9.0101 Y45.9899
G01 X8.9178 Y45.8882
G01 X8.8359 Y45.7778
G01 X8.7653 Y45.6600
G01 X8.7066 Y45.5358
G01 X8.6603 Y45.4064
G01 X8.6269 Y45.2731
G01 X8.6067 Y45.1372
G01 X8.6000 Y45.0000
G01 X8.6067 Y44.8628
G01 X8.6269 Y44.7269
G01 X8.6603 Y44.5936
G01 X8.7066 Y44.4642
G01 X8.7653 Y44.3400
G01 X8.8359 Y44.2222
G01 X8.9178 Y44.1118
G01 X9.0101 Y44.0101
G01 X9.1118 Y43.9178
G01 X9.2222 Y43.8359
G01 X9.3400 Y43.7653
G01 X9.4642 Y43.7066
G01 X9.5936 Y43.6603
G01 X9.7269 Y43.6269
G01 X9.8628 Y43.6067
G01 X10.0000 Y43.6000
G01 X10.1372 Y43.6067
G01 X10.2683 Y43.6261
G01 X10.2755 Y43.6274
G01 X10.4017 Y43.6590
G01 X10.4087 Y43.6610
G01 X10.5335 Y43.7057
G01 X10.5638 Y43.7197
G00 Z5.0000
G00 X8.7000 Y48.6000
G01 F50.00
G01 Z-0.1866
G01 F50.00
G01 X11.3000 Y48.6000
G01 X11.3098 Y48.6005
G01 X11.3171 Y48.6015
G01 X11.3243 Y48.6030
G01 X11.3314 Y48.6050
G01 X11.3383 Y48.6076
G01 X11.3450 Y48.6107
G01 X11.3514 Y48.6142
G01 X11.3576 Y48.6182
G01 X11.3634 Y48.6227
G01 X11.3690 Y48.6276
G01 X11.3741 Y48.6328
G01 X11.3788 Y48.6385
G01 X11.3831 Y48.6444
G01 X11.3893 Y48.6550
G01 X11.3924 Y48.6617
G01 X11.3950 Y48.6686
G01 X11.3970 Y48.6757
G01 X11.3985 Y48.6829
G01 X11.3995 Y48.6902
G01 X11.4000 Y48.6975
G01 X11.4000 Y48.8836
G01 X17.9000 Y42.3836
G01 X17.9000 Y40.9975
G01 X17.9011 Y40.9853
G01 X17.9030 Y40.9757
G01 X17.9058 Y40.9663
G01 X17.9096 Y40.9572
G01 X17.9142 Y40.9486
G01 X17.9197 Y40.9404
G01 X17.9259 Y40.9328
G01 X17.9328 Y40.9259
G01 X17.9404 Y40.9197
G01 X17.9486 Y40.9142
G01 X17.9550 Y40.9107
G01 X17.9640 Y40.9067
G01 X17.9733 Y40.9036
G01 X17.9805 Y40.9019
G01 X17.9902 Y40.9005
G01 X17.9975 Y40.9000
G01 X20.0000 Y40.9000
G01 X20.0122 Y40.9008
G01 X20.0243 Y40.9030
G01 X20.0360 Y40.9067
G01 X20.0471 Y40.9118
G01 X20.0576 Y40.9182
G01 X20.0672 Y40.9259
G01 X20.0757 Y40.9347
G01 X20.0831 Y40.9444
G01 X20.0870 Y40.9507
G01 X20.0904 Y40.9572
G01 X20.0933 Y40.9640
G01 X20.0957 Y40.9710
G01 X20.0976 Y40.9781
G01 X20.0989 Y40.9853
G01 X20.0997 Y40.9926
G01 X20.1000 Y41.0000
G01 X20.1000 Y43.0000
G01 X20.0995 Y43.0098
G01 X20.0985 Y43.0171
G01 X20.0970 Y43.0243
G01 X20.0942 Y43.0337
G01 X20.0904 Y43.0428
G01 X20.0870 Y43.0493
G01 X20.0818 Y43.0576
G01 X20.0773 Y43.0634
G01 X20.0690 Y43.0724
G01 X20.0615 Y43.0788
G01 X20.0535 Y43.0845
G01 X20.0428 Y43.0904
G01 X20.0337 Y43.0942
G01 X20.0243 Y43.0970
G01 X20.0122 Y43.0992
G01 X20.0025 Y43.1000
G01 X18.6164 Y43.1000
G01 X11.4000 Y50.3164
G01 X11.3999 Y51.3049
G01 X11.3985 Y51.3171
G01 X11.3957 Y51.3290
G01 X11.3924 Y51.3383
G01 X11.3870 Y51.3493
G01 X11.3803 Y51.3596
G01 X11.3724 Y51.3690
G01 X11.3634 Y51.3773
G01 X11.3556 Y51.3831
G01 X11.3493 Y51.3870
G01 X11.3428 Y51.3904
G01 X11.3360 Y51.3933
G01 X11.3290 Y51.3957
G01 X11.3219 Y51.3976
G01 X11.3147 Y51.3989
G01 X11.3074 Y51.3997
G01 X11.3000 Y51.4000
G01 X8.7000 Y51.4000
G01 X8.6902 Y51.3995
G01 X8.6805 Y51.3981
G01 X8.6686 Y51.3950
G01 X8.6595 Y51.3914
G01 X8.6507 Y51.3870
G01 X8.6424 Y51.3818
G01 X8.6347 Y51.3757
G01 X8.6276 Y51.3690
G01 X8.6212 Y51.3615
G01 X8.6155 Y51.3535
G01 X8.6107 Y51.3450
G01 X8.6067 Y51.3360
G01 X8.6036 Y51.3267
G01 X8.6015 Y51.3171
G01 X8.6003 Y51.3074
G01 X8.6000 Y51.3000
G01 X8.6000 Y48.6975
G01 X8.6008 Y48.6878
G01 X8.6024 Y48.6781
G01 X8.6050 Y48.6686
G01 X8.6086 Y48.6595
G01 X8.6130 Y48.6507
G01 X8.6182 Y48.6424
G01 X8.6243 Y48.6347
G01 X8.6293 Y48.6293
G01 X8.6366 Y48.6227
G01 X8.6444 Y48.6169
G01 X8.6529 Y48.6118
G01 X8.6617 Y48.6076
G01 X8.6710 Y48.6043
G01 X8.6805 Y48.6019
G01 X8.6902 Y48.6005
G01 X8.7000 Y48.6000
G00 Z5.0000
G00 X41.3202 Y41.1667
G01 F50.00
G01 Z-0.1866
G01 F50.00
G01 X41.3987 Y41.1388
G01 X41.4796 Y41.1184
G01 X41.4893 Y41.1165
G01 X41.5669 Y41.1049
G01 X41.5767 Y41.1040
G01 X41.6600 Y41.1000
G01 X42.0625 Y41.1000
G01 X42.1482 Y41.1043
G01 X42.2356 Y41.1173
G01 X42.3213 Y41.1388
G01 X42.4044 Y41.1685
G01 X42.4843 Y41.2063
G01 X42.5600 Y41.2517
G01 X42.6310 Y41.3043
G01 X42.6964 Y41.3636
G01 X42.7557 Y41.4290
G01 X42.8036 Y41.4934
G01 X43.0025 Y41.4934
G01 X43.0497 Y41.4958
G01 X43.0964 Y41.5027
G01 X43.1471 Y41.5152
G01 X43.1939 Y41.5320
G01 X43.2388 Y41.5532
G01 X43.2773 Y41.5761
G01 X43.2855 Y41.5816
G01 X43.3214 Y41.6084
G01 X43.3582 Y41.6418
G01 X50.4362 Y48.7197
G01 X50.4665 Y48.7057
G01 X50.5889 Y48.6618
G01 X50.5960 Y48.6596
G01 X50.7269 Y48.6269
G01 X50.8603 Y48.6070
G01 X50.8677 Y48.6064
G01 X50.9951 Y48.6001
G01 X51.0049 Y48.6001
G01 X51.1372 Y48.6067
G01 X51.2707 Y48.6265
G01 X51.2779 Y48.6280
G01 X51.4017 Y48.6590
G01 X51.4111 Y48.6618
G01 X51.5358 Y48.7066
G01 X51.6600 Y48.7653
G01 X51.7737 Y48.8333
G01 X51.7818 Y48.8388
G01 X51.8882 Y48.9178
G01 X51.9864 Y49.0067
G01 X51.9933 Y49.0136
G01 X52.0822 Y49.1118
G01 X52.1641 Y49.2222
G01 X52.2347 Y49.3400
G01 X52.2934 Y49.4642
G01 X52.3397 Y49.5936
G01 X52.3731 Y49.7269
G01 X52.3933 Y49.8628
G01 X52.4000 Y50.0000
G01 X52.3933 Y50.1372
G01 X52.3731 Y50.2731
G01 X52.3397 Y50.4064
G01 X52.2934 Y50.5358
G01 X52.2347 Y50.6600
G01 X52.1641 Y50.7778
G01 X52.0822 Y50.8882
G01 X51.9933 Y50.9864
G01 X51.9864 Y50.9933
G01 X51.8882 Y51.0822
G01 X51.7778 Y51.1641
G01 X51.6600 Y51.2347
G01 X51.5358 Y51.2934
G01 X51.4064 Y51.3397
G01 X51.2731 Y51.3731
G01 X51.1372 Y51.3933
G01 X51.0000 Y51.4000
G01 X50.8628 Y51.3933
G01 X50.7269 Y51.3731
G01 X50.5936 Y51.3397
G01 X50.4642 Y51.2934
G01 X50.3400 Y51.2347
G01 X50.2222 Y51.1641
G01 X50.1118 Y51.0822
G01 X50.0136 Y50.9933
G01 X50.0067 Y50.9864
G01 X49.9210 Y50.8919
G01 X49.9148 Y50.8843
G01 X49.8359 Y50.7778
G01 X49.7653 Y50.6600
G01 X49.7086 Y50.5402
G01 X49.7048 Y50.5312
G01 X49.6603 Y50.4064
G01 X49.6269 Y50.2731
G01 X49.6067 Y50.1372
G01 X49.6001 Y50.0049
G01 X49.6001 Y49.9951
G01 X49.6067 Y49.8628
G01 X49.6269 Y49.7269
G01 X49.6596 Y49.5960
G01 X49.6618 Y49.5889
G01 X49.7057 Y49.4665
G01 X49.7197 Y49.4362
G01 X42.7979 Y42.5143
G01 X42.7557 Y42.5710
G01 X42.6998 Y42.6328
G01 X42.6928 Y42.6398
G01 X42.6347 Y42.6925
G01 X42.6271 Y42.6987
G01 X42.5600 Y42.7483
G01 X42.4843 Y42.7937
G01 X42.4044 Y42.8315
G01 X42.3259 Y42.8597
G01 X42.3165 Y42.8626
G01 X42.2356 Y42.8827
G01 X42.1531 Y42.8951
G01 X42.1433 Y42.8960
G01 X42.0625 Y42.9000
G01 X41.6600 Y42.9000
G01 X41.5767 Y42.8960
G01 X41.5669 Y42.8951
G01 X41.4844 Y42.8827
G01 X41.3987 Y42.8612
G01 X41.3156 Y42.8315
G01 X41.2401 Y42.7959
G01 X41.2315 Y42.7913
G01 X41.1600 Y42.7483
G01 X41.0929 Y42.6987
G01 X41.0853 Y42.6925
G01 X41.0236 Y42.6364
G01 X40.9675 Y42.5747
G01 X40.9613 Y42.5671
G01 X40.9117 Y42.5000
G01 X40.8663 Y42.4243
G01 X40.8285 Y42.3444
G01 X40.8003 Y42.2659
G01 X40.7974 Y42.2565
G01 X40.7773 Y42.1756
G01 X40.7649 Y42.0931
G01 X40.7640 Y42.0833
G01 X40.7601 Y42.0049
G01 X40.7601 Y41.9951
G01 X40.7643 Y41.9118
G01 X40.7765 Y41.8293
G01 X40.7784 Y41.8196
G01 X40.7988 Y41.7387
G01 X40.8267 Y41.6602
G01 X40.8305 Y41.6511
G01 X40.8641 Y41.5801
G01 X40.8687 Y41.5715
G01 X40.9117 Y41.5000
G01 X40.9643 Y41.4290
G01 X41.0202 Y41.3672
G01 X41.0272 Y41.3602
G01 X41.0890 Y41.3043
G01 X41.1560 Y41.2545
G01 X41.1641 Y41.2491
G01 X41.2357 Y41.2063
G01 X41.3111 Y41.1705
G01 X41.3202 Y41.1667
G00 Z5.0000
G00 X41.3202 Y38.6267
G01 F50.00
G01 Z-0.1866
G01 F50.00
G01 X41.3987 Y38.5988
G01 X41.4796 Y38.5784
G01 X41.4893 Y38.5765
G01 X41.5718 Y38.5643
G01 X41.6600 Y38.5600
G01 X42.0625 Y38.5600
G01 X42.1433 Y38.5640
G01 X42.1531 Y38.5649
G01 X42.2356 Y38.5773
G01 X42.3165 Y38.5974
G01 X42.3259 Y38.6003
G01 X42.4044 Y38.6285
G01 X42.4843 Y38.6663
G01 X42.5559 Y38.7091
G01 X42.5640 Y38.7145
G01 X42.6310 Y38.7643
G01 X42.6964 Y38.8236
G01 X42.7525 Y38.8853
G01 X42.7587 Y38.8929
G01 X42.8083 Y38.9600
G01 X42.8525 Y39.0336
G01 X42.8895 Y39.1111
G01 X42.8933 Y39.1202
G01 X42.9212 Y39.1987
G01 X42.9422 Y39.2820
G01 X42.9551 Y39.3669
G01 X42.9559 Y39.3742
G01 X42.9600 Y39.4575
G01 X42.9585 Y39.4934
G01 X47.0025 Y39.4934
G01 X47.0497 Y39.4958
G01 X47.0940 Y39.5023
G01 X47.1036 Y39.5042
G01 X47.1471 Y39.5152
G01 X47.1939 Y39.5320
G01 X47.2344 Y39.5510
G01 X47.2431 Y39.5556
G01 X47.2815 Y39.5788
G01 X47.3214 Y39.6084
G01 X47.3582 Y39.6418
G01 X47.3916 Y39.6786
G01 X47.4212 Y39.7185
G01 X47.4468 Y39.7612
G01 X47.4680 Y39.8061
G01 X47.4848 Y39.8529
G01 X47.4973 Y39.9036
G01 X47.5042 Y39.9503
G01 X47.5066 Y40.0000
G01 X47.5066 Y40.7902
G01 X50.4362 Y43.7197
G01 X50.4665 Y43.7057
G01 X50.5889 Y43.6618
G01 X50.5960 Y43.6596
G01 X50.7269 Y43.6269
G01 X50.8628 Y43.6067
G01 X51.0000 Y43.6000
G01 X51.1323 Y43.6064
G01 X51.1421 Y43.6073
G01 X51.2683 Y43.6261
G01 X51.2779 Y43.6280
G01 X51.4064 Y43.6603
G01 X51.5358 Y43.7066
G01 X51.6600 Y43.7653
G01 X51.7737 Y43.8333
G01 X51.7818 Y43.8388
G01 X51.8843 Y43.9148
G01 X51.8919 Y43.9210
G01 X51.9899 Y44.0101
G01 X52.0790 Y44.1081
G01 X52.0837 Y44.1138
G01 X52.1641 Y44.2222
G01 X52.2323 Y44.3358
G01 X52.2369 Y44.3444
G01 X52.2914 Y44.4598
G01 X52.2952 Y44.4688
G01 X52.3397 Y44.5936
G01 X52.3731 Y44.7269
G01 X52.3933 Y44.8628
G01 X52.3999 Y44.9951
G01 X52.3999 Y45.0049
G01 X52.3936 Y45.1323
G01 X52.3927 Y45.1421
G01 X52.3731 Y45.2731
G01 X52.3397 Y45.4064
G01 X52.2952 Y45.5312
G01 X52.2914 Y45.5402
G01 X52.2347 Y45.6600
G01 X52.1641 Y45.7778
G01 X52.0822 Y45.8882
G01 X51.9899 Y45.9899
G01 X51.8882 Y46.0822
G01 X51.7818 Y46.1612
G01 X51.7737 Y46.1667
G01 X51.6600 Y46.2347
G01 X51.5402 Y46.2914
G01 X51.5312 Y46.2952
G01 X51.4111 Y46.3382
G01 X51.4017 Y46.3410
G01 X51.2731 Y46.3731
G01 X51.1372 Y46.3933
G01 X51.0000 Y46.4000
G01 X50.8628 Y46.3933
G01 X50.7269 Y46.3731
G01 X50.5983 Y46.3410
G01 X50.5889 Y46.3382
G01 X50.4642 Y46.2934
G01 X50.3444 Y46.2369
G01 X50.3358 Y46.2323
G01 X50.2263 Y46.1667
G01 X50.2182 Y46.1612
G01 X50.1118 Y46.0822
G01 X50.0118 Y45.9917
G01 X50.0067 Y45.9864
G01 X49.9210 Y45.8919
G01 X49.9148 Y45.8843
G01 X49.8359 Y45.7778
G01 X49.7653 Y45.6600
G01 X49.7086 Y45.5402
G01 X49.7048 Y45.5312
G01 X49.6603 Y45.4064
G01 X49.6269 Y45.2731
G01 X49.6067 Y45.1372
G01 X49.6001 Y45.0049
G01 X49.6001 Y44.9951
G01 X49.6067 Y44.8628
G01 X49.6269 Y44.7269
G01 X49.6596 Y44.5960
G01 X49.6618 Y44.5889
G01 X49.7057 Y44.4665
G01 X49.7197 Y44.4362
G01 X46.6418 Y41.3582
G01 X46.6084 Y41.3214
G01 X46.5788 Y41.2815
G01 X46.5556 Y41.2431
G01 X46.5510 Y41.2344
G01 X46.5320 Y41.1939
G01 X46.5168 Y41.1517
G01 X46.5139 Y41.1423
G01 X46.5031 Y41.0988
G01 X46.4964 Y41.0545
G01 X46.4955 Y41.0448
G01 X46.4934 Y41.0000
G01 X46.4934 Y40.5066
G01 X42.4000 Y40.5066
G01 X42.3552 Y40.5045
G01 X42.3455 Y40.5036
G01 X42.3060 Y40.4977
G01 X42.2964 Y40.4958
G01 X42.2529 Y40.4848
G01 X42.2107 Y40.4698
G01 X42.2016 Y40.4661
G01 X42.1612 Y40.4468
G01 X42.1185 Y40.4212
G01 X42.0786 Y40.3916
G01 X42.0436 Y40.3600
G01 X41.6575 Y40.3600
G01 X41.5718 Y40.3557
G01 X41.4868 Y40.3432
G01 X41.4796 Y40.3416
G01 X41.3987 Y40.3212
G01 X41.3156 Y40.2915
G01 X41.2357 Y40.2537
G01 X41.1600 Y40.2083
G01 X41.0929 Y40.1587
G01 X41.0853 Y40.1525
G01 X41.0236 Y40.0964
G01 X40.9675 Y40.0347
G01 X40.9613 Y40.0271
G01 X40.9117 Y39.9600
G01 X40.8687 Y39.8885
G01 X40.8641 Y39.8799
G01 X40.8285 Y39.8044
G01 X40.8003 Y39.7259
G01 X40.7974 Y39.7165
G01 X40.7773 Y39.6356
G01 X40.7643 Y39.5482
G01 X40.7601 Y39.4649
G01 X40.7601 Y39.4551
G01 X40.7643 Y39.3718
G01 X40.7765 Y39.2893
G01 X40.7784 Y39.2796
G01 X40.7988 Y39.1987
G01 X40.8285 Y39.1156
G01 X40.8641 Y39.0401
G01 X40.8687 Y39.0315
G01 X40.9117 Y38.9600
G01 X40.9613 Y38.8929
G01 X40.9675 Y38.8853
G01 X41.0236 Y38.8236
G01 X41.0853 Y38.7675
G01 X41.0929 Y38.7613
G01 X41.1600 Y38.7117
G01 X41.2315 Y38.6687
G01 X41.2401 Y38.6641
G01 X41.3111 Y38.6305
G01 X41.3202 Y38.6267
G00 Z5.0000
G00 X41.3202 Y36.0867
G01 F50.00
G01 Z-0.1866
G01 F50.00
G01 X41.3987 Y36.0588
G01 X41.4796 Y36.0384
G01 X41.4893 Y36.0365
G01 X41.5669 Y36.0249
G01 X41.5767 Y36.0240
G01 X41.6600 Y36.0200
G01 X42.0625 Y36.0200
G01 X42.1482 Y36.0243
G01 X42.2307 Y36.0365
G01 X42.2380 Y36.0378
G01 X42.3213 Y36.0588
G01 X42.4044 Y36.0885
G01 X42.4843 Y36.1263
G01 X42.5600 Y36.1717
G01 X42.6310 Y36.2243
G01 X42.6964 Y36.2836
G01 X42.7557 Y36.3490
G01 X42.8036 Y36.4134
G01 X47.9200 Y36.4134
G01 X47.9697 Y36.4158
G01 X48.0188 Y36.4231
G01 X48.0671 Y36.4352
G01 X48.1139 Y36.4520
G01 X48.1588 Y36.4732
G01 X48.2015 Y36.4988
G01 X48.2414 Y36.5284
G01 X48.2782 Y36.5618
G01 X50.4362 Y38.7197
G01 X50.4665 Y38.7057
G01 X50.5889 Y38.6618
G01 X50.5960 Y38.6596
G01 X50.7269 Y38.6269
G01 X50.8628 Y38.6067
G01 X51.0000 Y38.6000
G01 X51.1323 Y38.6064
G01 X51.1421 Y38.6073
G01 X51.2731 Y38.6269
G01 X51.4017 Y38.6590
G01 X51.4111 Y38.6618
G01 X51.5358 Y38.7066
G01 X51.6600 Y38.7653
G01 X51.7737 Y38.8333
G01 X51.7818 Y38.8388
G01 X51.8882 Y38.9178
G01 X51.9899 Y39.0101
G01 X52.0790 Y39.1081
G01 X52.0852 Y39.1157
G01 X52.1641 Y39.2222
G01 X52.2347 Y39.3400
G01 X52.2914 Y39.4598
G01 X52.2952 Y39.4688
G01 X52.3397 Y39.5936
G01 X52.3731 Y39.7269
G01 X52.3933 Y39.8628
G01 X52.3999 Y39.9951
G01 X52.3999 Y40.0049
G01 X52.3933 Y40.1372
G01 X52.3739 Y40.2683
G01 X52.3720 Y40.2779
G01 X52.3397 Y40.4064
G01 X52.2934 Y40.5358
G01 X52.2347 Y40.6600
G01 X52.1641 Y40.7778
G01 X52.0822 Y40.8882
G01 X51.9933 Y40.9864
G01 X51.9864 Y40.9933
G01 X51.8919 Y41.0790
G01 X51.8843 Y41.0852
G01 X51.7778 Y41.1641
G01 X51.6642 Y41.2323
G01 X51.6556 Y41.2369
G01 X51.5358 Y41.2934
G01 X51.4064 Y41.3397
G01 X51.2731 Y41.3731
G01 X51.1372 Y41.3933
G01 X51.0000 Y41.4000
G01 X50.8677 Y41.3936
G01 X50.8579 Y41.3927
G01 X50.7269 Y41.3731
G01 X50.5983 Y41.3410
G01 X50.5889 Y41.3382
G01 X50.4688 Y41.2952
G01 X50.4598 Y41.2914
G01 X50.3400 Y41.2347
G01 X50.2222 Y41.1641
G01 X50.1118 Y41.0822
G01 X50.0101 Y40.9899
G01 X49.9178 Y40.8882
G01 X49.8388 Y40.7818
G01 X49.8333 Y40.7737
G01 X49.7677 Y40.6642
G01 X49.7631 Y40.6556
G01 X49.7066 Y40.5358
G01 X49.6603 Y40.4064
G01 X49.6269 Y40.2731
G01 X49.6067 Y40.1372
G01 X49.6000 Y40.0000
G01 X49.6064 Y39.8677
G01 X49.6073 Y39.8579
G01 X49.6269 Y39.7269
G01 X49.6590 Y39.5983
G01 X49.6618 Y39.5889
G01 X49.7057 Y39.4665
G01 X49.7197 Y39.4362
G01 X47.7102 Y37.4266
G01 X42.8036 Y37.4266
G01 X42.7557 Y37.4910
G01 X42.6964 Y37.5564
G01 X42.6310 Y37.6157
G01 X42.5600 Y37.6683
G01 X42.4843 Y37.7137
G01 X42.4044 Y37.7515
G01 X42.3213 Y37.7812
G01 X42.2380 Y37.8022
G01 X42.2307 Y37.8035
G01 X42.1482 Y37.8157
G01 X42.0625 Y37.8200
G01 X41.6600 Y37.8200
G01 X41.5767 Y37.8160
G01 X41.5669 Y37.8151
G01 X41.4893 Y37.8035
G01 X41.4796 Y37.8016
G01 X41.3987 Y37.7812
G01 X41.3156 Y37.7515
G01 X41.2357 Y37.7137
G01 X41.1641 Y37.6709
G01 X41.1560 Y37.6655
G01 X41.0890 Y37.6157
G01 X41.0236 Y37.5564
G01 X40.9675 Y37.4947
G01 X40.9613 Y37.4871
G01 X40.9117 Y37.4200
G01 X40.8663 Y37.3443
G01 X40.8305 Y37.2689
G01 X40.8267 Y37.2598
G01 X40.7988 Y37.1813
G01 X40.7773 Y37.0956
G01 X40.7649 Y37.0131
G01 X40.7640 Y37.0033
G01 X40.7600 Y36.9200
G01 X40.7640 Y36.8367
G01 X40.7649 Y36.8269
G01 X40.7773 Y36.7444
G01 X40.7988 Y36.6587
G01 X40.8267 Y36.5802
G01 X40.8305 Y36.5711
G01 X40.8663 Y36.4957
G01 X40.9117 Y36.4200
G01 X40.9643 Y36.3490
G01 X41.0202 Y36.2872
G01 X41.0272 Y36.2802
G01 X41.0890 Y36.2243
G01 X41.1600 Y36.1717
G01 X41.2315 Y36.1287
G01 X41.2401 Y36.1241
G01 X41.3111 Y36.0905
G01 X41.3202 Y36.0867
G00 Z5.0000
G00 X41.3202 Y33.5467
G01 F50.00
G01 Z-0.1866
G01 F50.00
G01 X41.3987 Y33.5188
G01 X41.4796 Y33.4984
G01 X41.4893 Y33.4965
G01 X41.5718 Y33.4843
G01 X41.6600 Y33.4800
G01 X42.0625 Y33.4800
G01 X42.1433 Y33.4840
G01 X42.1531 Y33.4849
G01 X42.2356 Y33.4973
G01 X42.3165 Y33.5174
G01 X42.3259 Y33.5203
G01 X42.4044 Y33.5485
G01 X42.4799 Y33.5841
G01 X42.4864 Y33.5875
G01 X42.5600 Y33.6317
G01 X42.6271 Y33.6813
G01 X42.6347 Y33.6875
G01 X42.6964 Y33.7436
G01 X42.7557 Y33.8090
G01 X42.8055 Y33.8760
G01 X42.8109 Y33.8841
G01 X42.8549 Y33.9579
G01 X42.8915 Y34.0356
G01 X42.9197 Y34.1141
G01 X42.9226 Y34.1235
G01 X42.9432 Y34.2068
G01 X42.9557 Y34.2918
G01 X42.9600 Y34.3775
G01 X42.9599 Y34.3849
G01 X42.9559 Y34.4658
G01 X42.9521 Y34.4934
G01 X49.6960 Y34.4934
G01 X49.7075 Y34.4620
G01 X49.7631 Y34.3444
G01 X49.7665 Y34.3379
G01 X49.8359 Y34.2222
G01 X49.9148 Y34.1157
G01 X49.9194 Y34.1100
G01 X50.0101 Y34.0101
G01 X50.1118 Y33.9178
G01 X50.2222 Y33.8359
G01 X50.3379 Y33.7665
G01 X50.3444 Y33.7631
G01 X50.4642 Y33.7066
G01 X50.5889 Y33.6618
G01 X50.5983 Y33.6590
G01 X50.7221 Y33.6280
G01 X50.7317 Y33.6261
G01 X50.8628 Y33.6067
G01 X51.0000 Y33.6000
G01 X51.1372 Y33.6067
G01 X51.2683 Y33.6261
G01 X51.2779 Y33.6280
G01 X51.4064 Y33.6603
G01 X51.5358 Y33.7066
G01 X51.6600 Y33.7653
G01 X51.7778 Y33.8359
G01 X51.8882 Y33.9178
G01 X51.9899 Y34.0101
G01 X52.0822 Y34.1118
G01 X52.1641 Y34.2222
G01 X52.2347 Y34.3400
G01 X52.2934 Y34.4642
G01 X52.3397 Y34.5936
G01 X52.3731 Y34.7269
G01 X52.3933 Y34.8628
G01 X52.4000 Y35.0000
G01 X52.3933 Y35.1372
G01 X52.3739 Y35.2683
G01 X52.3720 Y35.2779
G01 X52.3397 Y35.4064
G01 X52.2952 Y35.5312
G01 X52.2914 Y35.5402
G01 X52.2369 Y35.6556
G01 X52.2323 Y35.6642
G01 X52.1641 Y35.7778
G01 X52.0822 Y35.8882
G01 X51.9899 Y35.9899
G01 X51.8882 Y36.0822
G01 X51.7778 Y36.1641
G01 X51.6642 Y36.2323
G01 X51.6556 Y36.2369
G01 X51.5402 Y36.2914
G01 X51.5312 Y36.2952
G01 X51.4064 Y36.3397
G01 X51.2731 Y36.3731
G01 X51.1372 Y36.3933
G01 X51.0025 Y36.4000
G01 X50.9951 Y36.3999
G01 X50.8677 Y36.3936
G01 X50.8579 Y36.3927
G01 X50.7269 Y36.3731
G01 X50.5936 Y36.3397
G01 X50.4642 Y36.2934
G01 X50.3444 Y36.2369
G01 X50.3358 Y36.2323
G01 X50.2222 Y36.1641
G01 X50.1118 Y36.0822
G01 X50.0136 Y35.9933
G01 X50.0067 Y35.9864
G01 X49.9178 Y35.8882
G01 X49.8359 Y35.7778
G01 X49.7665 Y35.6621
G01 X49.7631 Y35.6556
G01 X49.7075 Y35.5380
G01 X49.6960 Y35.5066
G01 X42.4800 Y35.5066
G01 X42.4303 Y35.5042
G01 X42.3860 Y35.4977
G01 X42.3764 Y35.4958
G01 X42.3329 Y35.4848
G01 X42.2861 Y35.4680
G01 X42.2412 Y35.4468
G01 X42.2006 Y35.4226
G01 X42.1586 Y35.3916
G01 X42.1253 Y35.3616
G01 X42.0436 Y35.2800
G01 X41.6600 Y35.2800
G01 X41.5718 Y35.2757
G01 X41.4844 Y35.2627
G01 X41.4035 Y35.2426
G01 X41.3941 Y35.2397
G01 X41.3133 Y35.2105
G01 X41.2357 Y35.1737
G01 X41.1600 Y35.1283
G01 X41.0890 Y35.0757
G01 X41.0272 Y35.0198
G01 X41.0202 Y35.0128
G01 X40.9675 Y34.9547
G01 X40.9613 Y34.9471
G01 X40.9117 Y34.8800
G01 X40.8663 Y34.8043
G01 X40.8285 Y34.7244
G01 X40.7988 Y34.6413
G01 X40.7773 Y34.5556
G01 X40.7649 Y34.4731
G01 X40.7640 Y34.4633
G01 X40.7600 Y34.3800
G01 X40.7640 Y34.2967
G01 X40.7649 Y34.2869
G01 X40.7765 Y34.2093
G01 X40.7784 Y34.1996
G01 X40.7988 Y34.1187
G01 X40.8267 Y34.0402
G01 X40.8305 Y34.0311
G01 X40.8663 Y33.9557
G01 X40.9117 Y33.8800
G01 X40.9643 Y33.8090
G01 X41.0236 Y33.7436
G01 X41.0890 Y33.6843
G01 X41.1600 Y33.6317
G01 X41.2357 Y33.5863
G01 X41.3111 Y33.5505
G01 X41.3202 Y33.5467
G00 Z5.0000
G00 X41.3202 Y31.0067
G01 F50.00
G01 Z-0.1866
G01 F50.00
G01 X41.3987 Y30.9788
G01 X41.4796 Y30.9584
G01 X41.4893 Y30.9565
G01 X41.5669 Y30.9449
G01 X41.5767 Y30.9440
G01 X41.6600 Y30.9400
G01 X42.0625 Y30.9400
G01 X42.1482 Y30.9443
G01 X42.2307 Y30.9565
G01 X42.2380 Y30.9578
G01 X42.3213 Y30.9788
G01 X42.4044 Y31.0085
G01 X42.4843 Y31.0463
G01 X42.5600 Y31.0917
G01 X42.6310 Y31.1443
G01 X42.6964 Y31.2036
G01 X42.7557 Y31.2690
G01 X42.8036 Y31.3334
G01 X45.9502 Y31.3334
G01 X47.6418 Y29.6418
G01 X47.6749 Y29.6116
G01 X47.6825 Y29.6054
G01 X47.7185 Y29.5788
G01 X47.7590 Y29.5544
G01 X47.8061 Y29.5320
G01 X47.8483 Y29.5168
G01 X47.8577 Y29.5139
G01 X47.9012 Y29.5031
G01 X47.9455 Y29.4964
G01 X47.9552 Y29.4955
G01 X47.9975 Y29.4934
G01 X49.6960 Y29.4934
G01 X49.7075 Y29.4620
G01 X49.7642 Y29.3422
G01 X49.7677 Y29.3358
G01 X49.8333 Y29.2263
G01 X49.8388 Y29.2182
G01 X49.9178 Y29.1118
G01 X50.0067 Y29.0136
G01 X50.0136 Y29.0067
G01 X50.1081 Y28.9210
G01 X50.1157 Y28.9148
G01 X50.2222 Y28.8359
G01 X50.3358 Y28.7677
G01 X50.3444 Y28.7631
G01 X50.4642 Y28.7066
G01 X50.5936 Y28.6603
G01 X50.7221 Y28.6280
G01 X50.7317 Y28.6261
G01 X50.8628 Y28.6067
G01 X51.0000 Y28.6000
G01 X51.1372 Y28.6067
G01 X51.2731 Y28.6269
G01 X51.4064 Y28.6603
G01 X51.5358 Y28.7066
G01 X51.6600 Y28.7653
G01 X51.7778 Y28.8359
G01 X51.8882 Y28.9178
G01 X51.9899 Y29.0101
G01 X52.0822 Y29.1118
G01 X52.1641 Y29.2222
G01 X52.2347 Y29.3400
G01 X52.2934 Y29.4642
G01 X52.3397 Y29.5936
G01 X52.3731 Y29.7269
G01 X52.3933 Y29.8628
G01 X52.3999 Y29.9951
G01 X52.3999 Y30.0049
G01 X52.3933 Y30.1372
G01 X52.3731 Y30.2731
G01 X52.3397 Y30.4064
G01 X52.2952 Y30.5312
G01 X52.2914 Y30.5402
G01 X52.2369 Y30.6556
G01 X52.2323 Y30.6642
G01 X52.1641 Y30.7778
G01 X52.0822 Y30.8882
G01 X51.9899 Y30.9899
G01 X51.8919 Y31.0790
G01 X51.8843 Y31.0852
G01 X51.7818 Y31.1612
G01 X51.7737 Y31.1667
G01 X51.6600 Y31.2347
G01 X51.5358 Y31.2934
G01 X51.4064 Y31.3397
G01 X51.2731 Y31.3731
G01 X51.1372 Y31.3933
G01 X51.0000 Y31.4000
G01 X50.8628 Y31.3933
G01 X50.7269 Y31.3731
G01 X50.5936 Y31.3397
G01 X50.4642 Y31.2934
G01 X50.3400 Y31.2347
G01 X50.2222 Y31.1641
G01 X50.1118 Y31.0822
G01 X50.0101 Y30.9899
G01 X49.9178 Y30.8882
G01 X49.8388 Y30.7818
G01 X49.8346 Y30.7757
G01 X49.7677 Y30.6642
G01 X49.7642 Y30.6578
G01 X49.7075 Y30.5380
G01 X49.6960 Y30.5066
G01 X48.2098 Y30.5066
G01 X46.5147 Y32.2016
G01 X46.4814 Y32.2316
G01 X46.4415 Y32.2612
G01 X46.3988 Y32.2868
G01 X46.3584 Y32.3061
G01 X46.3493 Y32.3098
G01 X46.3117 Y32.3232
G01 X46.3023 Y32.3261
G01 X46.2588 Y32.3369
G01 X46.2097 Y32.3442
G01 X46.1600 Y32.3466
G01 X42.8036 Y32.3466
G01 X42.7557 Y32.4110
G01 X42.6964 Y32.4764
G01 X42.6310 Y32.5357
G01 X42.5640 Y32.5855
G01 X42.5559 Y32.5909
G01 X42.4843 Y32.6337
G01 X42.4089 Y32.6695
G01 X42.3998 Y32.6733
G01 X42.3259 Y32.6997
G01 X42.3165 Y32.7026
G01 X42.2356 Y32.7227
G01 X42.1531 Y32.7351
G01 X42.1433 Y32.7360
G01 X42.0600 Y32.7400
G01 X41.6600 Y32.7400
G01 X41.5767 Y32.7360
G01 X41.5669 Y32.7351
G01 X41.4844 Y32.7227
G01 X41.4011 Y32.7019
G01 X41.3202 Y32.6733
G01 X41.3111 Y32.6695
G01 X41.2357 Y32.6337
G01 X41.1600 Y32.5883
G01 X41.0890 Y32.5357
G01 X41.0272 Y32.4798
G01 X41.0202 Y32.4728
G01 X40.9675 Y32.4147
G01 X40.9613 Y32.4071
G01 X40.9117 Y32.3400
G01 X40.8687 Y32.2685
G01 X40.8641 Y32.2599
G01 X40.8305 Y32.1889
G01 X40.8267 Y32.1798
G01 X40.7988 Y32.1013
G01 X40.7773 Y32.0156
G01 X40.7643 Y31.9282
G01 X40.7601 Y31.8449
G01 X40.7601 Y31.8351
G01 X40.7640 Y31.7567
G01 X40.7649 Y31.7469
G01 X40.7773 Y31.6644
G01 X40.7988 Y31.5787
G01 X40.8267 Y31.5002
G01 X40.8305 Y31.4911
G01 X40.8663 Y31.4157
G01 X40.9117 Y31.3400
G01 X40.9643 Y31.2690
G01 X41.0202 Y31.2072
G01 X41.0272 Y31.2002
G01 X41.0890 Y31.1443
G01 X41.1600 Y31.0917
G01 X41.2315 Y31.0487
G01 X41.2401 Y31.0441
G01 X41.3111 Y31.0105
G01 X41.3202 Y31.0067
G00 Z5.0000
G00 X41.3202 Y28.4667
G01 F50.00
G01 Z-0.1866
G01 F50.00
G01 X41.3987 Y28.4388
G01 X41.4796 Y28.4184
G01 X41.4893 Y28.4165
G01 X41.5669 Y28.4049
G01 X41.5767 Y28.4040
G01 X41.6600 Y28.4000
G01 X42.0625 Y28.4000
G01 X42.1482 Y28.4043
G01 X42.2307 Y28.4165
G01 X42.2380 Y28.4178
G01 X42.3213 Y28.4388
G01 X42.4044 Y28.4685
G01 X42.4843 Y28.5063
G01 X42.5600 Y28.5517
G01 X42.6310 Y28.6043
G01 X42.6964 Y28.6636
G01 X42.7557 Y28.7290
G01 X42.8036 Y28.7934
G01 X44.4902 Y28.7934
G01 X48.6418 Y24.6418
G01 X48.6749 Y24.6116
G01 X48.6825 Y24.6054
G01 X48.7185 Y24.5788
G01 X48.7590 Y24.5544
G01 X48.8061 Y24.5320
G01 X48.8529 Y24.5152
G01 X48.9012 Y24.5031
G01 X48.9528 Y24.4956
G01 X49.0000 Y24.4934
G01 X49.6960 Y24.4934
G01 X49.7075 Y24.4620
G01 X49.7631 Y24.3444
G01 X49.7665 Y24.3379
G01 X49.8359 Y24.2222
G01 X49.9163 Y24.1138
G01 X49.9210 Y24.1081
G01 X50.0067 Y24.0136
G01 X50.0136 Y24.0067
G01 X50.1118 Y23.9178
G01 X50.2202 Y23.8373
G01 X50.2263 Y23.8333
G01 X50.3358 Y23.7677
G01 X50.3444 Y23.7631
G01 X50.4642 Y23.7066
G01 X50.5936 Y23.6603
G01 X50.7221 Y23.6280
G01 X50.7317 Y23.6261
G01 X50.8628 Y23.6067
G01 X50.9975 Y23.6000
G01 X51.0049 Y23.6001
G01 X51.1323 Y23.6064
G01 X51.1421 Y23.6073
G01 X51.2731 Y23.6269
G01 X51.4064 Y23.6603
G01 X51.5358 Y23.7066
G01 X51.6556 Y23.7631
G01 X51.6642 Y23.7677
G01 X51.7778 Y23.8359
G01 X51.8882 Y23.9178
G01 X51.9864 Y24.0067
G01 X51.9933 Y24.0136
G01 X52.0822 Y24.1118
G01 X52.1641 Y24.2222
G01 X52.2323 Y24.3358
G01 X52.2369 Y24.3444
G01 X52.2914 Y24.4598
G01 X52.2952 Y24.4688
G01 X52.3397 Y24.5936
G01 X52.3731 Y24.7269
G01 X52.3933 Y24.8628
G01 X52.3999 Y24.9951
G01 X52.3999 Y25.0049
G01 X52.3936 Y25.1323
G01 X52.3927 Y25.1421
G01 X52.3731 Y25.2731
G01 X52.3397 Y25.4064
G01 X52.2934 Y25.5358
G01 X52.2369 Y25.6556
G01 X52.2323 Y25.6642
G01 X52.1667 Y25.7737
G01 X52.1612 Y25.7818
G01 X52.0822 Y25.8882
G01 X51.9899 Y25.9899
G01 X51.8882 Y26.0822
G01 X51.7798 Y26.1627
G01 X51.7737 Y26.1667
G01 X51.6600 Y26.2347
G01 X51.5358 Y26.2934
G01 X51.4064 Y26.3397
G01 X51.2779 Y26.3720
G01 X51.2683 Y26.3739
G01 X51.1372 Y26.3933
G01 X51.0049 Y26.3999
G01 X50.9951 Y26.3999
G01 X50.8677 Y26.3936
G01 X50.8579 Y26.3927
G01 X50.7269 Y26.3731
G01 X50.5983 Y26.3410
G01 X50.5889 Y26.3382
G01 X50.4642 Y26.2934
G01 X50.3444 Y26.2369
G01 X50.3358 Y26.2323
G01 X50.2263 Y26.1667
G01 X50.2182 Y26.1612
G01 X50.1118 Y26.0822
G01 X50.0136 Y25.9933
G01 X50.0067 Y25.9864
G01 X49.9178 Y25.8882
G01 X49.8359 Y25.7778
G01 X49.7677 Y25.6642
G01 X49.7642 Y25.6578
G01 X49.7075 Y25.5380
G01 X49.6960 Y25.5066
G01 X49.2098 Y25.5066
G01 X45.0582 Y29.6582
G01 X45.0214 Y29.6916
G01 X44.9815 Y29.7212
G01 X44.9388 Y29.7468
G01 X44.8984 Y29.7661
G01 X44.8893 Y29.7698
G01 X44.8471 Y29.7848
G01 X44.7988 Y29.7969
G01 X44.7497 Y29.8042
G01 X44.7025 Y29.8066
G01 X42.8036 Y29.8066
G01 X42.7557 Y29.8710
G01 X42.6964 Y29.9364
G01 X42.6310 Y29.9957
G01 X42.5600 Y30.0483
G01 X42.4843 Y30.0937
G01 X42.4044 Y30.1315
G01 X42.3213 Y30.1612
G01 X42.2380 Y30.1822
G01 X42.2307 Y30.1835
G01 X42.1482 Y30.1957
G01 X42.0625 Y30.2000
G01 X41.6600 Y30.2000
G01 X41.5767 Y30.1960
G01 X41.5669 Y30.1951
G01 X41.4893 Y30.1835
G01 X41.4796 Y30.1816
G01 X41.3987 Y30.1612
G01 X41.3202 Y30.1333
G01 X41.3111 Y30.1295
G01 X41.2401 Y30.0959
G01 X41.2315 Y30.0913
G01 X41.1600 Y30.0483
G01 X41.0890 Y29.9957
G01 X41.0236 Y29.9364
G01 X40.9675 Y29.8747
G01 X40.9613 Y29.8671
G01 X40.9117 Y29.8000
G01 X40.8663 Y29.7243
G01 X40.8305 Y29.6489
G01 X40.8267 Y29.6398
G01 X40.7988 Y29.5613
G01 X40.7773 Y29.4756
G01 X40.7649 Y29.3931
G01 X40.7640 Y29.3833
G01 X40.7600 Y29.3000
G01 X40.7640 Y29.2167
G01 X40.7649 Y29.2069
G01 X40.7773 Y29.1244
G01 X40.7988 Y29.0387
G01 X40.8267 Y28.9602
G01 X40.8305 Y28.9511
G01 X40.8663 Y28.8757
G01 X40.9117 Y28.8000
G01 X40.9643 Y28.7290
G01 X41.0202 Y28.6672
G01 X41.0272 Y28.6602
G01 X41.0890 Y28.6043
G01 X41.1600 Y28.5517
G01 X41.2315 Y28.5087
G01 X41.2401 Y28.5041
G01 X41.3111 Y28.4705
G01 X41.3202 Y28.4667
G00 Z5.0000
G00 X41.3202 Y25.9267
G01 F50.00
G01 Z-0.1866
G01 F50.00
G01 X41.3987 Y25.8988
G01 X41.4796 Y25.8784
G01 X41.4893 Y25.8765
G01 X41.5669 Y25.8649
G01 X41.5767 Y25.8640
G01 X41.6600 Y25.8600
G01 X42.0625 Y25.8600
G01 X42.1482 Y25.8643
G01 X42.2356 Y25.8773
G01 X42.3213 Y25.8988
G01 X42.4044 Y25.9285
G01 X42.4843 Y25.9663
G01 X42.5600 Y26.0117
G01 X42.6310 Y26.0643
G01 X42.6964 Y26.1236
G01 X42.7557 Y26.1890
G01 X42.8036 Y26.2534
G01 X43.0302 Y26.2534
G01 X47.4934 Y21.7902
G01 X47.4934 Y20.0000
G01 X47.4958 Y19.9503
G01 X47.5031 Y19.9012
G01 X47.5139 Y19.8577
G01 X47.5168 Y19.8483
G01 X47.5302 Y19.8107
G01 X47.5339 Y19.8016
G01 X47.5532 Y19.7612
G01 X47.5761 Y19.7227
G01 X47.5816 Y19.7145
G01 X47.6084 Y19.6786
G01 X47.6418 Y19.6418
G01 X47.6786 Y19.6084
G01 X47.7206 Y19.5774
G01 X47.7612 Y19.5532
G01 X47.8016 Y19.5339
G01 X47.8107 Y19.5302
G01 X47.8529 Y19.5152
G01 X47.8964 Y19.5042
G01 X47.9060 Y19.5023
G01 X47.9503 Y19.4958
G01 X47.9951 Y19.4935
G01 X49.6960 Y19.4934
G01 X49.7075 Y19.4620
G01 X49.7642 Y19.3422
G01 X49.7677 Y19.3358
G01 X49.8333 Y19.2263
G01 X49.8388 Y19.2182
G01 X49.9178 Y19.1118
G01 X50.0067 Y19.0136
G01 X50.0136 Y19.0067
G01 X50.1081 Y18.9210
G01 X50.1157 Y18.9148
G01 X50.2222 Y18.8359
G01 X50.3358 Y18.7677
G01 X50.3444 Y18.7631
G01 X50.4642 Y18.7066
G01 X50.5936 Y18.6603
G01 X50.7221 Y18.6280
G01 X50.7317 Y18.6261
G01 X50.8579 Y18.6073
G01 X50.8652 Y18.6065
G01 X51.0000 Y18.6000
G01 X51.1323 Y18.6064
G01 X51.1421 Y18.6073
G01 X51.2731 Y18.6269
G01 X51.4017 Y18.6590
G01 X51.4111 Y18.6618
G01 X51.5358 Y18.7066
G01 X51.6556 Y18.7631
G01 X51.6642 Y18.7677
G01 X51.7778 Y18.8359
G01 X51.8843 Y18.9148
G01 X51.8919 Y18.9210
G01 X51.9899 Y19.0101
G01 X52.0790 Y19.1081
G01 X52.0852 Y19.1157
G01 X52.1612 Y19.2182
G01 X52.1654 Y19.2243
G01 X52.2347 Y19.3400
G01 X52.2914 Y19.4598
G01 X52.2952 Y19.4688
G01 X52.3382 Y19.5889
G01 X52.3410 Y19.5983
G01 X52.3731 Y19.7269
G01 X52.3927 Y19.8579
G01 X52.3936 Y19.8677
G01 X52.4000 Y20.0000
G01 X52.3933 Y20.1372
G01 X52.3731 Y20.2731
G01 X52.3410 Y20.4017
G01 X52.3382 Y20.4111
G01 X52.2952 Y20.5312
G01 X52.2914 Y20.5402
G01 X52.2347 Y20.6600
G01 X52.1667 Y20.7737
G01 X52.1612 Y20.7818
G01 X52.0822 Y20.8882
G01 X51.9899 Y20.9899
G01 X51.8882 Y21.0822
G01 X51.7818 Y21.1612
G01 X51.7737 Y21.1667
G01 X51.6600 Y21.2347
G01 X51.5402 Y21.2914
G01 X51.5312 Y21.2952
G01 X51.4111 Y21.3382
G01 X51.4017 Y21.3410
G01 X51.2731 Y21.3731
G01 X51.1372 Y21.3933
G01 X51.0000 Y21.4000
G01 X50.8628 Y21.3933
G01 X50.7269 Y21.3731
G01 X50.5936 Y21.3397
G01 X50.4642 Y21.2934
G01 X50.3444 Y21.2369
G01 X50.3358 Y21.2323
G01 X50.2222 Y21.1641
G01 X50.1118 Y21.0822
G01 X50.0101 Y20.9899
G01 X49.9210 Y20.8919
G01 X49.9148 Y20.8843
G01 X49.8359 Y20.7778
G01 X49.7677 Y20.6642
G01 X49.7631 Y20.6556
G01 X49.7075 Y20.5380
G01 X49.6960 Y20.5066
G01 X48.5066 Y20.5066
G01 X48.5066 Y22.0000
G01 X48.5044 Y22.0472
G01 X48.4977 Y22.0940
G01 X48.4958 Y22.1036
G01 X48.4848 Y22.1471
G01 X48.4680 Y22.1939
G01 X48.4490 Y22.2344
G01 X48.4444 Y22.2431
G01 X48.4212 Y22.2815
G01 X48.3946 Y22.3175
G01 X48.3884 Y22.3251
G01 X48.3582 Y22.3582
G01 X43.5982 Y27.1182
G01 X43.5614 Y27.1516
G01 X43.5194 Y27.1826
G01 X43.4788 Y27.2068
G01 X43.4384 Y27.2261
G01 X43.4293 Y27.2298
G01 X43.3871 Y27.2448
G01 X43.3436 Y27.2558
G01 X43.3340 Y27.2577
G01 X43.2921 Y27.2639
G01 X43.2400 Y27.2666
G01 X42.8036 Y27.2666
G01 X42.7557 Y27.3310
G01 X42.6964 Y27.3964
G01 X42.6310 Y27.4557
G01 X42.5600 Y27.5083
G01 X42.4843 Y27.5537
G01 X42.4044 Y27.5915
G01 X42.3213 Y27.6212
G01 X42.2404 Y27.6416
G01 X42.2332 Y27.6432
G01 X42.1482 Y27.6557
G01 X42.0625 Y27.6600
G01 X41.6600 Y27.6600
G01 X41.5718 Y27.6557
G01 X41.4844 Y27.6427
G01 X41.3987 Y27.6212
G01 X41.3156 Y27.5915
G01 X41.2401 Y27.5559
G01 X41.2336 Y27.5525
G01 X41.1600 Y27.5083
G01 X41.0929 Y27.4587
G01 X41.0853 Y27.4525
G01 X41.0236 Y27.3964
G01 X40.9675 Y27.3347
G01 X40.9613 Y27.3271
G01 X40.9117 Y27.2600
G01 X40.8663 Y27.1843
G01 X40.8305 Y27.1089
G01 X40.8267 Y27.0998
G01 X40.7988 Y27.0213
G01 X40.7773 Y26.9356
G01 X40.7649 Y26.8531
G01 X40.7640 Y26.8433
G01 X40.7600 Y26.7600
G01 X40.7640 Y26.6767
G01 X40.7649 Y26.6669
G01 X40.7765 Y26.5893
G01 X40.7784 Y26.5796
G01 X40.7988 Y26.4987
G01 X40.8267 Y26.4202
G01 X40.8305 Y26.4111
G01 X40.8663 Y26.3357
G01 X40.9091 Y26.2641
G01 X40.9145 Y26.2560
G01 X40.9643 Y26.1890
G01 X41.0202 Y26.1272
G01 X41.0272 Y26.1202
G01 X41.0890 Y26.0643
G01 X41.1600 Y26.0117
G01 X41.2315 Y25.9687
G01 X41.2401 Y25.9641
G01 X41.3111 Y25.9305
G01 X41.3202 Y25.9267
G00 Z5.0000
G00 X41.3202 Y23.3867
G01 F50.00
G01 Z-0.1866
G01 F50.00
G01 X41.3987 Y23.3588
G01 X41.4796 Y23.3384
G01 X41.4893 Y23.3365
G01 X41.5742 Y23.3241
G01 X41.6600 Y23.3200
G01 X42.0600 Y23.3200
G01 X42.1433 Y23.3240
G01 X42.1531 Y23.3249
G01 X42.2356 Y23.3373
G01 X42.3213 Y23.3588
G01 X42.4044 Y23.3885
G01 X42.4799 Y23.4241
G01 X42.4885 Y23.4287
G01 X42.5559 Y23.4691
G01 X42.5640 Y23.4745
G01 X42.6310 Y23.5243
G01 X42.6928 Y23.5802
G01 X42.6982 Y23.5854
G01 X44.4934 Y21.7902
G01 X44.4934 Y17.0000
G01 X44.4955 Y16.9552
G01 X44.4964 Y16.9455
G01 X44.5031 Y16.9012
G01 X44.5152 Y16.8529
G01 X44.5320 Y16.8061
G01 X44.5510 Y16.7656
G01 X44.5556 Y16.7569
G01 X44.5788 Y16.7185
G01 X44.6054 Y16.6825
G01 X44.6116 Y16.6749
G01 X44.6401 Y16.6435
G01 X46.6418 Y14.6418
G01 X46.6767 Y14.6100
G01 X46.7185 Y14.5788
G01 X46.7569 Y14.5556
G01 X46.7656 Y14.5510
G01 X46.8016 Y14.5339
G01 X46.8107 Y14.5302
G01 X46.8529 Y14.5152
G01 X46.9012 Y14.5031
G01 X46.9503 Y14.4958
G01 X46.9951 Y14.4935
G01 X49.6000 Y14.4934
G01 X49.6000 Y13.7000
G01 X49.6005 Y13.6902
G01 X49.6015 Y13.6829
G01 X49.6036 Y13.6733
G01 X49.6058 Y13.6663
G01 X49.6096 Y13.6572
G01 X49.6130 Y13.6507
G01 X49.6182 Y13.6424
G01 X49.6227 Y13.6366
G01 X49.6276 Y13.6310
G01 X49.6328 Y13.6259
G01 X49.6385 Y13.6212
G01 X49.6444 Y13.6169
G01 X49.6529 Y13.6118
G01 X49.6595 Y13.6086
G01 X49.6686 Y13.6050
G01 X49.6757 Y13.6030
G01 X49.6829 Y13.6015
G01 X49.6926 Y13.6003
G01 X49.7000 Y13.6000
G01 X52.3025 Y13.6000
G01 X52.3122 Y13.6008
G01 X52.3243 Y13.6030
G01 X52.3337 Y13.6058
G01 X52.3428 Y13.6096
G01 X52.3514 Y13.6142
G01 X52.3615 Y13.6212
G01 X52.3690 Y13.6276
G01 X52.3757 Y13.6347
G01 X52.3818 Y13.6424
G01 X52.3870 Y13.6507
G01 X52.3904 Y13.6572
G01 X52.3942 Y13.6663
G01 X52.3970 Y13.6757
G01 X52.3985 Y13.6829
G01 X52.3997 Y13.6926
G01 X52.4000 Y13.7000
G01 X52.4000 Y16.3000
G01 X52.3992 Y16.3122
G01 X52.3981 Y16.3195
G01 X52.3964 Y16.3267
G01 X52.3942 Y16.3337
G01 X52.3914 Y16.3405
G01 X52.3858 Y16.3514
G01 X52.3788 Y16.3615
G01 X52.3741 Y16.3672
G01 X52.3690 Y16.3724
G01 X52.3634 Y16.3773
G01 X52.3576 Y16.3818
G01 X52.3471 Y16.3882
G01 X52.3360 Y16.3933
G01 X52.3243 Y16.3970
G01 X52.3122 Y16.3992
G01 X52.3000 Y16.4000
G01 X49.7000 Y16.4000
G01 X49.6902 Y16.3995
G01 X49.6829 Y16.3985
G01 X49.6757 Y16.3970
G01 X49.6686 Y16.3950
G01 X49.6617 Y16.3924
G01 X49.6529 Y16.3882
G01 X49.6465 Y16.3845
G01 X49.6404 Y16.3803
G01 X49.6328 Y16.3741
G01 X49.6276 Y16.3690
G01 X49.6227 Y16.3634
G01 X49.6182 Y16.3576
G01 X49.6142 Y16.3514
G01 X49.6096 Y16.3428
G01 X49.6058 Y16.3337
G01 X49.6036 Y16.3267
G01 X49.6015 Y16.3171
G01 X49.6005 Y16.3098
G01 X49.6000 Y16.3000
G01 X49.6000 Y15.5066
G01 X47.2098 Y15.5066
G01 X45.5066 Y17.2098
G01 X45.5066 Y22.0000
G01 X45.5042 Y22.0497
G01 X45.4977 Y22.0940
G01 X45.4958 Y22.1036
G01 X45.4840 Y22.1494
G01 X45.4698 Y22.1893
G01 X45.4661 Y22.1984
G01 X45.4468 Y22.2388
G01 X45.4239 Y22.2773
G01 X45.4184 Y22.2855
G01 X45.3916 Y22.3214
G01 X45.3599 Y22.3565
G01 X43.1382 Y24.5782
G01 X43.1033 Y24.6100
G01 X43.0615 Y24.6412
G01 X43.0231 Y24.6644
G01 X43.0144 Y24.6690
G01 X42.9716 Y24.6890
G01 X42.9271 Y24.7048
G01 X42.8812 Y24.7164
G01 X42.8321 Y24.7239
G01 X42.8044 Y24.7255
G01 X42.7557 Y24.7910
G01 X42.6964 Y24.8564
G01 X42.6310 Y24.9157
G01 X42.5600 Y24.9683
G01 X42.4843 Y25.0137
G01 X42.4044 Y25.0515
G01 X42.3213 Y25.0812
G01 X42.2404 Y25.1016
G01 X42.2332 Y25.1032
G01 X42.1482 Y25.1157
G01 X42.0625 Y25.1200
G01 X41.6600 Y25.1200
G01 X41.5767 Y25.1160
G01 X41.5693 Y25.1154
G01 X41.4893 Y25.1035
G01 X41.4796 Y25.1016
G01 X41.3987 Y25.0812
G01 X41.3202 Y25.0533
G01 X41.3111 Y25.0495
G01 X41.2357 Y25.0137
G01 X41.1600 Y24.9683
G01 X41.0929 Y24.9187
G01 X41.0853 Y24.9125
G01 X41.0236 Y24.8564
G01 X40.9675 Y24.7947
G01 X40.9613 Y24.7871
G01 X40.9117 Y24.7200
G01 X40.8687 Y24.6485
G01 X40.8641 Y24.6399
G01 X40.8285 Y24.5644
G01 X40.8003 Y24.4859
G01 X40.7974 Y24.4765
G01 X40.7773 Y24.3956
G01 X40.7643 Y24.3082
G01 X40.7601 Y24.2249
G01 X40.7601 Y24.2151
G01 X40.7643 Y24.1318
G01 X40.7765 Y24.0493
G01 X40.7784 Y24.0396
G01 X40.7988 Y23.9587
G01 X40.8285 Y23.8756
G01 X40.8641 Y23.8001
G01 X40.8687 Y23.7915
G01 X40.9117 Y23.7200
G01 X40.9613 Y23.6529
G01 X40.9675 Y23.6453
G01 X41.0236 Y23.5836
G01 X41.0853 Y23.5275
G01 X41.0929 Y23.5213
G01 X41.1600 Y23.4717
G01 X41.2315 Y23.4287
G01 X41.2401 Y23.4241
G01 X41.3111 Y23.3905
G01 X41.3202 Y23.3867
G00 Z5.0000
M05
G00 Z5.0000
G00 Z15.00


