(G-CODE GENERATED BY FLATCAM v8.994 - www.flatcam.org - Version Date: 2020/11/7)

(Name: wemos_test_board_0-PTH.drl_cnc)
(Type: G-code from Geometry)
(Units: MM)

(Created on Saturday, 04 November 2023 at 14:42)

(This preprocessor is the default preprocessor used by FlatCAM.)
(It is made to work with MACH3 compatible motion controllers.)


(TOOLS DIAMETER: )
(Tool: 1 -> Dia: 1.0)
(Tool: 2 -> Dia: 1.3)

(FEEDRATE Z: )
(Tool: 1 -> Feedrate: 300)
(Tool: 2 -> Feedrate: 300)

(FEEDRATE RAPIDS: )
(Tool: 1 -> Feedrate Rapids: 1500)
(Tool: 2 -> Feedrate Rapids: 1500)

(Z_CUT: )
(Tool: 1 -> Z_Cut: -1.7)
(Tool: 2 -> Z_Cut: -1.7)

(Tools Offset: )
(Tool: 1 -> Offset Z: 0.0)
(Tool: 2 -> Offset Z: 0.0)

(Z_MOVE: )
(Tool: 1 -> Z_Move: 5.0)
(Tool: 2 -> Z_Move: 5.0)

(Z Toolchange: 15 mm)
(X,Y Toolchange: 0.0000, 0.0000 mm)
(Z Start: None mm)
(Z End: 0.5 mm)
(X,Y End: None mm)
(Steps per circle: 64)
(Preprocessor Excellon: default)

(X range:   13.3500 ...   55.6500  mm)
(Y range:   28.3500 ...   64.6500  mm)

(Spindle Speed: 2000 RPM)
G21
G90
G94

G01 F300.00

M5
G00 Z15.0000
T1
G00 X0.0000 Y0.0000                
M6
(MSG, Change to Tool Dia = 1.0000 ||| Total drills for tool T1 = 32)
M0
G00 Z15.0000

G01 F300.00
M03 S2000
G00 X23.0000 Y56.0000
G01 Z-1.7000
G01 Z0
G00 Z5.0000
G00 X23.0000 Y53.4600
G01 Z-1.7000
G01 Z0
G00 Z5.0000
G00 X23.0000 Y50.9200
G01 Z-1.7000
G01 Z0
G00 Z5.0000
G00 X23.0000 Y48.3800
G01 Z-1.7000
G01 Z0
G00 Z5.0000
G00 X23.0000 Y45.8400
G01 Z-1.7000
G01 Z0
G00 Z5.0000
G00 X23.0000 Y43.3000
G01 Z-1.7000
G01 Z0
G00 Z5.0000
G00 X23.0000 Y40.7600
G01 Z-1.7000
G01 Z0
G00 Z5.0000
G00 X23.0000 Y38.2200
G01 Z-1.7000
G01 Z0
G00 Z5.0000
G00 X14.0000 Y29.0000
G01 Z-1.7000
G01 Z0
G00 Z5.0000
G00 X14.0000 Y34.0000
G01 Z-1.7000
G01 Z0
G00 Z5.0000
G00 X14.0000 Y39.0000
G01 Z-1.7000
G01 Z0
G00 Z5.0000
G00 X14.0000 Y44.0000
G01 Z-1.7000
G01 Z0
G00 Z5.0000
G00 X14.0000 Y49.0000
G01 Z-1.7000
G01 Z0
G00 Z5.0000
G00 X14.0000 Y54.0000
G01 Z-1.7000
G01 Z0
G00 Z5.0000
G00 X14.0000 Y59.0000
G01 Z-1.7000
G01 Z0
G00 Z5.0000
G00 X14.0000 Y64.0000
G01 Z-1.7000
G01 Z0
G00 Z5.0000
G00 X55.0000 Y64.0000
G01 Z-1.7000
G01 Z0
G00 Z5.0000
G00 X55.0000 Y59.0000
G01 Z-1.7000
G01 Z0
G00 Z5.0000
G00 X55.0000 Y54.0000
G01 Z-1.7000
G01 Z0
G00 Z5.0000
G00 X55.0000 Y49.0000
G01 Z-1.7000
G01 Z0
G00 Z5.0000
G00 X55.0000 Y44.0000
G01 Z-1.7000
G01 Z0
G00 Z5.0000
G00 X55.0000 Y39.0000
G01 Z-1.7000
G01 Z0
G00 Z5.0000
G00 X55.0000 Y34.0000
G01 Z-1.7000
G01 Z0
G00 Z5.0000
G00 X55.0000 Y29.0000
G01 Z-1.7000
G01 Z0
G00 Z5.0000
G00 X45.8600 Y38.2200
G01 Z-1.7000
G01 Z0
G00 Z5.0000
G00 X45.8600 Y40.7600
G01 Z-1.7000
G01 Z0
G00 Z5.0000
G00 X45.8600 Y43.3000
G01 Z-1.7000
G01 Z0
G00 Z5.0000
G00 X45.8600 Y45.8400
G01 Z-1.7000
G01 Z0
G00 Z5.0000
G00 X45.8600 Y48.3800
G01 Z-1.7000
G01 Z0
G00 Z5.0000
G00 X45.8600 Y50.9200
G01 Z-1.7000
G01 Z0
G00 Z5.0000
G00 X45.8600 Y53.4600
G01 Z-1.7000
G01 Z0
G00 Z5.0000
G00 X45.8600 Y56.0000
G01 Z-1.7000
G01 Z0
G00 Z5.0000
M05
G00 Z0.50


