(G-CODE GENERATED BY FLATCAM v8.994 - www.flatcam.org - Version Date: 2020/11/7)

(Name: wemos_test_board_0-Edge_Cuts.gbr_cutout_cnc)
(Type: G-code from Geometry)
(Units: MM)

(Created on Sunday, 05 November 2023 at 16:44)

(This preprocessor is the default preprocessor used by FlatCAM.)
(It is made to work with MACH3 compatible motion controllers.)

(TOOL DIAMETER: 2.4 mm)
(Feedrate_XY: 50.0 mm/min)
(Feedrate_Z: 60.0 mm/min)
(Feedrate rapids 1500.0 mm/min)

(Z_Cut: -1.8 mm)
(DepthPerCut: 0.6 mm <=>3 passes)
(Z_Move: 5.0 mm)
(Z Start: None mm)
(Z End: 15.0 mm)
(X,Y End: None mm)
(Steps per circle: 64)
(Preprocessor Geometry: default)

(X range:    1.6750 ...   59.3250  mm)
(Y range:    2.6750 ...   62.3250  mm)

(Spindle Speed: 2000.0 RPM)
G21
G90
G94

G01 F50.00

M5
G00 Z15.0000
G00 X0.0000 Y0.0000
T1
M6    
(MSG, Change to Tool Dia = 2.4000)
M0
G00 Z15.0000

M03 S2000.0
G01 F50.00
G00 X28.9000 Y2.6750
G01 F60.00
G01 Z-0.6000
G01 F50.00
G01 X3.0000 Y2.6750
G01 X2.9338 Y2.6767
G01 X2.8068 Y2.6892
G01 X2.6792 Y2.7144
G01 X2.5548 Y2.7521
G01 X2.4346 Y2.8017
G01 X2.3199 Y2.8629
G01 X2.2117 Y2.9350
G01 X2.1111 Y3.0174
G01 X2.0191 Y3.1093
G01 X1.9365 Y3.2097
G01 X1.8642 Y3.3178
G01 X1.8028 Y3.4324
G01 X1.7529 Y3.5525
G01 X1.7150 Y3.6769
G01 X1.6895 Y3.8044
G01 X1.6767 Y3.9338
G01 X1.6750 Y4.0000
G01 X1.6750 Y30.9000
G00 X1.6750 Y30.9000
G01 F60.00
G01 Z-1.2000
G01 F50.00
G01 X1.6750 Y4.0000
G01 X1.6767 Y3.9338
G01 X1.6895 Y3.8044
G01 X1.7150 Y3.6769
G01 X1.7529 Y3.5525
G01 X1.8028 Y3.4324
G01 X1.8642 Y3.3178
G01 X1.9365 Y3.2097
G01 X2.0191 Y3.1093
G01 X2.1111 Y3.0174
G01 X2.2117 Y2.9350
G01 X2.3199 Y2.8629
G01 X2.4346 Y2.8017
G01 X2.5548 Y2.7521
G01 X2.6792 Y2.7144
G01 X2.8068 Y2.6892
G01 X2.9338 Y2.6767
G01 X3.0000 Y2.6750
G01 X28.9000 Y2.6750
G00 X28.9000 Y2.6750
G01 F60.00
G01 Z-1.8000
G01 F50.00
G01 X3.0000 Y2.6750
G01 X2.9338 Y2.6767
G01 X2.8068 Y2.6892
G01 X2.6792 Y2.7144
G01 X2.5548 Y2.7521
G01 X2.4346 Y2.8017
G01 X2.3199 Y2.8629
G01 X2.2117 Y2.9350
G01 X2.1111 Y3.0174
G01 X2.0191 Y3.1093
G01 X1.9365 Y3.2097
G01 X1.8642 Y3.3178
G01 X1.8028 Y3.4324
G01 X1.7529 Y3.5525
G01 X1.7150 Y3.6769
G01 X1.6895 Y3.8044
G01 X1.6767 Y3.9338
G01 X1.6750 Y4.0000
G01 X1.6750 Y30.9000
G00 Z5.0000
G00 X1.6750 Y34.3000
G01 F60.00
G01 Z-0.6000
G01 F50.00
G01 X1.6750 Y61.0000
G01 X1.6767 Y61.0662
G01 X1.6895 Y61.1956
G01 X1.7150 Y61.3231
G01 X1.7529 Y61.4475
G01 X1.8028 Y61.5676
G01 X1.8642 Y61.6822
G01 X1.9365 Y61.7903
G01 X2.0191 Y61.8907
G01 X2.1111 Y61.9826
G01 X2.2117 Y62.0650
G01 X2.3199 Y62.1371
G01 X2.4346 Y62.1983
G01 X2.5548 Y62.2479
G01 X2.6792 Y62.2856
G01 X2.8068 Y62.3108
G01 X2.9338 Y62.3233
G01 X3.0000 Y62.3250
G01 X28.9000 Y62.3250
G00 X28.9000 Y62.3250
G01 F60.00
G01 Z-1.2000
G01 F50.00
G01 X3.0000 Y62.3250
G01 X2.9338 Y62.3233
G01 X2.8068 Y62.3108
G01 X2.6792 Y62.2856
G01 X2.5548 Y62.2479
G01 X2.4346 Y62.1983
G01 X2.3199 Y62.1371
G01 X2.2117 Y62.0650
G01 X2.1111 Y61.9826
G01 X2.0191 Y61.8907
G01 X1.9365 Y61.7903
G01 X1.8642 Y61.6822
G01 X1.8028 Y61.5676
G01 X1.7529 Y61.4475
G01 X1.7150 Y61.3231
G01 X1.6895 Y61.1956
G01 X1.6767 Y61.0662
G01 X1.6750 Y61.0000
G01 X1.6750 Y34.3000
G00 X1.6750 Y34.3000
G01 F60.00
G01 Z-1.8000
G01 F50.00
G01 X1.6750 Y61.0000
G01 X1.6767 Y61.0662
G01 X1.6895 Y61.1956
G01 X1.7150 Y61.3231
G01 X1.7529 Y61.4475
G01 X1.8028 Y61.5676
G01 X1.8642 Y61.6822
G01 X1.9365 Y61.7903
G01 X2.0191 Y61.8907
G01 X2.1111 Y61.9826
G01 X2.2117 Y62.0650
G01 X2.3199 Y62.1371
G01 X2.4346 Y62.1983
G01 X2.5548 Y62.2479
G01 X2.6792 Y62.2856
G01 X2.8068 Y62.3108
G01 X2.9338 Y62.3233
G01 X3.0000 Y62.3250
G01 X28.9000 Y62.3250
G00 Z5.0000
G00 X32.3000 Y62.3250
G01 F60.00
G01 Z-0.6000
G01 F50.00
G01 X58.0000 Y62.3250
G01 X58.0662 Y62.3233
G01 X58.1932 Y62.3108
G01 X58.3208 Y62.2856
G01 X58.4452 Y62.2479
G01 X58.5654 Y62.1983
G01 X58.6801 Y62.1371
G01 X58.7883 Y62.0650
G01 X58.8889 Y61.9826
G01 X58.9809 Y61.8907
G01 X59.0635 Y61.7903
G01 X59.1358 Y61.6822
G01 X59.1972 Y61.5676
G01 X59.2471 Y61.4475
G01 X59.2850 Y61.3231
G01 X59.3105 Y61.1956
G01 X59.3233 Y61.0662
G01 X59.3250 Y61.0000
G01 X59.3250 Y34.3000
G00 X59.3250 Y34.3000
G01 F60.00
G01 Z-1.2000
G01 F50.00
G01 X59.3250 Y61.0000
G01 X59.3233 Y61.0662
G01 X59.3105 Y61.1956
G01 X59.2850 Y61.3231
G01 X59.2471 Y61.4475
G01 X59.1972 Y61.5676
G01 X59.1358 Y61.6822
G01 X59.0635 Y61.7903
G01 X58.9809 Y61.8907
G01 X58.8889 Y61.9826
G01 X58.7883 Y62.0650
G01 X58.6801 Y62.1371
G01 X58.5654 Y62.1983
G01 X58.4452 Y62.2479
G01 X58.3208 Y62.2856
G01 X58.1932 Y62.3108
G01 X58.0662 Y62.3233
G01 X58.0000 Y62.3250
G01 X32.3000 Y62.3250
G00 X32.3000 Y62.3250
G01 F60.00
G01 Z-1.8000
G01 F50.00
G01 X58.0000 Y62.3250
G01 X58.0662 Y62.3233
G01 X58.1932 Y62.3108
G01 X58.3208 Y62.2856
G01 X58.4452 Y62.2479
G01 X58.5654 Y62.1983
G01 X58.6801 Y62.1371
G01 X58.7883 Y62.0650
G01 X58.8889 Y61.9826
G01 X58.9809 Y61.8907
G01 X59.0635 Y61.7903
G01 X59.1358 Y61.6822
G01 X59.1972 Y61.5676
G01 X59.2471 Y61.4475
G01 X59.2850 Y61.3231
G01 X59.3105 Y61.1956
G01 X59.3233 Y61.0662
G01 X59.3250 Y61.0000
G01 X59.3250 Y34.3000
G00 Z5.0000
G00 X59.3250 Y30.9000
G01 F60.00
G01 Z-0.6000
G01 F50.00
G01 X59.3250 Y4.0000
G01 X59.3233 Y3.9338
G01 X59.3105 Y3.8044
G01 X59.2850 Y3.6769
G01 X59.2471 Y3.5525
G01 X59.1972 Y3.4324
G01 X59.1358 Y3.3178
G01 X59.0635 Y3.2097
G01 X58.9809 Y3.1093
G01 X58.8889 Y3.0174
G01 X58.7883 Y2.9350
G01 X58.6801 Y2.8629
G01 X58.5654 Y2.8017
G01 X58.4452 Y2.7521
G01 X58.3208 Y2.7144
G01 X58.1932 Y2.6892
G01 X58.0662 Y2.6767
G01 X58.0000 Y2.6750
G01 X32.3000 Y2.6750
G00 X32.3000 Y2.6750
G01 F60.00
G01 Z-1.2000
G01 F50.00
G01 X58.0000 Y2.6750
G01 X58.0662 Y2.6767
G01 X58.1932 Y2.6892
G01 X58.3208 Y2.7144
G01 X58.4452 Y2.7521
G01 X58.5654 Y2.8017
G01 X58.6801 Y2.8629
G01 X58.7883 Y2.9350
G01 X58.8889 Y3.0174
G01 X58.9809 Y3.1093
G01 X59.0635 Y3.2097
G01 X59.1358 Y3.3178
G01 X59.1972 Y3.4324
G01 X59.2471 Y3.5525
G01 X59.2850 Y3.6769
G01 X59.3105 Y3.8044
G01 X59.3233 Y3.9338
G01 X59.3250 Y4.0000
G01 X59.3250 Y30.9000
G00 X59.3250 Y30.9000
G01 F60.00
G01 Z-1.8000
G01 F50.00
G01 X59.3250 Y4.0000
G01 X59.3233 Y3.9338
G01 X59.3105 Y3.8044
G01 X59.2850 Y3.6769
G01 X59.2471 Y3.5525
G01 X59.1972 Y3.4324
G01 X59.1358 Y3.3178
G01 X59.0635 Y3.2097
G01 X58.9809 Y3.1093
G01 X58.8889 Y3.0174
G01 X58.7883 Y2.9350
G01 X58.6801 Y2.8629
G01 X58.5654 Y2.8017
G01 X58.4452 Y2.7521
G01 X58.3208 Y2.7144
G01 X58.1932 Y2.6892
G01 X58.0662 Y2.6767
G01 X58.0000 Y2.6750
G01 X32.3000 Y2.6750
G00 Z5.0000
M05
G00 Z5.0000
G00 Z15.00


